!!!!SEGMENT: pl-cz--iii-105--001-009_dankowski-adalbert--missa-d-benedictus.krn
!!!cenid: 18xx:749
!!!COM: Dankowski, Adalbert
!!!COM-rismID: pe30000793
!!!CDT: ~1760-~1836
!!!CNT: Polish
!!!OPR: Missa D
!!!OTL: Benedictus
!!!OMV: 009
!!!PDT:
!!!AGN: Sacred; Mass
!!!SMS-siglum: PL-CZ
!!!SMS-shelfmark: III-105
!!!SMS-shelfwork: 001-009 M
!!!SMS-variant:
!!!SMS-altvar:
!!!NIFC-rismSourceID: 300000109
!!!NIFC-rismChildID: 300000109
!!!NIFC-islandoraID: pl-cz:34145
!!!URL-pdf-islandora: https://repozytorium.nifc.pl/islandora/object/pl-cz%3A34145/datastream/PDF/view
!!!URL-scan: https://polish.musicsources.pl/pl/lokalizacje/galeria/rekopisy/6823/1 @EN{Scan on Polish Music Sources Website} @PL{Skany w portalu Dziedzictwo Muzyki Polskiej w otwartym dostępie}
!!!IIIF:
!!!ONB-nifc: UWAGA: części Mszy: Kyrie, Gloria, Qui tollis, Quoniam, Cum Sancto, Patrem, Et resurrexit, Sanctus, Benedictus, Agnus Dei, Dona nobis
!!!AIN: 1 alto 1 bass 2 clars 3 empty 2 oboe 1 organ 1 tenor 1 timpa 2 violn 1 vox
!!!key:
**kern	**dynam	**kern	**dynam	**kern	**kern	**dynam	**kern	**kern	**kern	**kern	**text	**kern	**kern	**kern	**kern	**kern	**kern	**kern
*part15	*part15	*part14	*part14	*part13	*part12	*part12	*part11	*part10	*part9	*part8	*part8	*part7	*part6	*part5	*part4	*part3	*part2	*part1
*staff15	*	*staff14	*	*staff13	*staff12	*	*staff11	*staff10	*staff9	*staff8	*staff8	*staff7	*staff6	*staff5	*staff4	*staff3	*staff2	*staff1
*Iorgan	*	*Iempty	*	*Ivioln	*Ivioln	*	*Ibass	*Itenor	*Ialto	*Ivox	*	*Itimpa	*Iempty	*Iempty	*Iclars	*Iclars	*Ioboe	*Ioboe
*I"Organo	*	*I"Viola Obligatto	*	*I"Violino Secundo	*I"Violino Primo	*	*I"Basso	*I"Tenore	*I"Alto	*I"Canto	*	*I"Timpano do D. A.	*I"Cornu Secundo Ex D	*I"Cornu Primo Ex D	*I"Clarinetto Secundo Ex A:	*I"Clarinetto Primo Ex A:	*I"Oboe Secundo Oblig(ato)	*I"Oboe Primo Oblig(ato)
*I'org	*	*I'vla	*	*I'vl II	*I'vl I	*	*I'B	*I'T	*I'A	*I'C	*	*I'timp	*I'cor II	*I'cor I	*I'cl II	*I'cl I	*I'ob II	*I'ob I
*clefF4	*	*clefC3	*	*clefG2	*clefG2	*	*clefF4	*clefC4	*clefC3	*clefC1	*	*clefF4	*clefG2	*clefG2	*clefG2	*clefG2	*clefG2	*clefG2
*	*	*	*	*	*	*	*	*	*	*	*	*	*ITrd6c10	*ITrd6c10	*ITrd2c3	*ITrd2c3	*	*
*k[f#]	*	*k[f#]	*	*k[f#]	*k[f#]	*	*k[f#]	*k[f#]	*k[f#]	*k[f#]	*	*k[f#]	*k[f#]	*k[f#]	*k[f#]	*k[f#]	*k[f#]	*k[f#]
*G:	*	*G:	*	*G:	*G:	*	*G:	*G:	*G:	*G:	*	*G:	*G:	*G:	*G:	*G:	*G:	*G:
*M3/4	*	*M3/4	*	*M3/4	*M3/4	*	*M3/4	*M3/4	*M3/4	*M3/4	*	*M3/4	*M3/4	*M3/4	*M3/4	*M3/4	*M3/4	*M3/4
=1	=1	=1	=1	=1	=1	=1	=1	=1	=1	=1	=1	=1	=1	=1	=1	=1	=1	=1
*2\right	*	*2\right	*	*	*2\right	*	*	*	*	*	*	*	*	*	*	*	*	*
!	!	!	!	!	!	!	!	!	!	!LO:TX:a:t=P:problem=dopisana ołówkiem liczba "20" pod pięciolinią	!	!	!	!	!	!	!	!
!LO:TX:a:t=Solo&colon;	!	!LO:TX:a:t=Solo&colon;	!	!	!LO:TX:a:t=Cantabile Solo&colon;	!	!	!	!	!LO:TX:a:t=Solo&colon;	!	!	!	!	!	!	!	!
!LO:TX:a:B:t=andan&colon;	!	!LO:TX:a:B:t=andan&colon;	!	!LO:TX:a:B:t=Benedictus Tacet	!LO:TX:a:B:t=andan&colon;	!	!LO:TX:a:B:t=Benedictus Tacet	!LO:TX:a:B:t=Benedictus Tacet	!LO:TX:a:B:t=Benedictus Tacet	!LO:TX:a:B:t=andante	!	!LO:TX:a:B:t=Benedictus Tacet.	!LO:TX:a:B:t=Benedictus Tacet	!LO:TX:a:B:t=Benedictus Tacet	!LO:TX:a:B:t=Benedictus Tacet	!LO:TX:a:B:t=Bened&colon; Tacet	!LO:TX:a:B:t=Benedictus Tacet	!LO:TX:a:B:t=Benedictus Tacet
8G\L	.	8B/L	.	2.ryy	2.g/	.	2.ryy	2.ryy	2.ryy	2.r	.	2.ryy	2.ryy	2.ryy	2.ryy	2.ryy	2.ryy	2.ryy
8G\	.	8B/	.	.	.	.	.	.	.	.	.	.	.	.	.	.	.	.
8G\	.	8B/	.	.	.	.	.	.	.	.	.	.	.	.	.	.	.	.
8G\	.	8B/	.	.	.	.	.	.	.	.	.	.	.	.	.	.	.	.
8G\	.	8B/	.	.	.	.	.	.	.	.	.	.	.	.	.	.	.	.
8G\J	.	8B/J	.	.	.	.	.	.	.	.	.	.	.	.	.	.	.	.
=2	=2	=2	=2	=2	=2	=2	=2	=2	=2	=2	=2	=2	=2	=2	=2	=2	=2	=2
2.G\	.	2.b\	.	2.ryy	2gg\	.	2.ryy	2.ryy	2.ryy	2.r	.	2.ryy	2.ryy	2.ryy	2.ryy	2.ryy	2.ryy	2.ryy
.	.	.	.	.	(16gg\LL	.	.	.	.	.	.	.	.	.	.	.	.	.
.	.	.	.	.	16aa\	.	.	.	.	.	.	.	.	.	.	.	.	.
.	.	.	.	.	16gg\	.	.	.	.	.	.	.	.	.	.	.	.	.
.	.	.	.	.	16ffn\JJ)	.	.	.	.	.	.	.	.	.	.	.	.	.
=3	=3	=3	=3	=3	=3	=3	=3	=3	=3	=3	=3	=3	=3	=3	=3	=3	=3	=3
2.G\	.	2.cc\	.	2.ryy	(4.ee\	.	2.ryy	2.ryy	2.ryy	2.r	.	2.ryy	2.ryy	2.ryy	2.ryy	2.ryy	2.ryy	2.ryy
.	.	.	.	.	16dd\LL	.	.	.	.	.	.	.	.	.	.	.	.	.
.	.	.	.	.	16ee\JJ)	.	.	.	.	.	.	.	.	.	.	.	.	.
.	.	.	.	.	16aa\LL	.	.	.	.	.	.	.	.	.	.	.	.	.
.	.	.	.	.	16gg\	.	.	.	.	.	.	.	.	.	.	.	.	.
.	.	.	.	.	16ff#\	.	.	.	.	.	.	.	.	.	.	.	.	.
.	.	.	.	.	16ee\JJ	.	.	.	.	.	.	.	.	.	.	.	.	.
=4	=4	=4	=4	=4	=4	=4	=4	=4	=4	=4	=4	=4	=4	=4	=4	=4	=4	=4
2.G\	.	2.b\	.	2.ryy	(16ee\LL	.	2.ryy	2.ryy	2.ryy	2.r	.	2.ryy	2.ryy	2.ryy	2.ryy	2.ryy	2.ryy	2.ryy
.	.	.	.	.	16dd\	.	.	.	.	.	.	.	.	.	.	.	.	.
.	.	.	.	.	16cc\	.	.	.	.	.	.	.	.	.	.	.	.	.
.	.	.	.	.	16dd\JJ)	.	.	.	.	.	.	.	.	.	.	.	.	.
.	.	.	.	.	4dd\	.	.	.	.	.	.	.	.	.	.	.	.	.
.	.	.	.	.	8r	.	.	.	.	.	.	.	.	.	.	.	.	.
.	.	.	.	.	8dd\	.	.	.	.	.	.	.	.	.	.	.	.	.
=5	=5	=5	=5	=5	=5	=5	=5	=5	=5	=5	=5	=5	=5	=5	=5	=5	=5	=5
2.F#\	.	2.a\	.	2.ryy	2cc\	.	2.ryy	2.ryy	2.ryy	2.r	.	2.ryy	2.ryy	2.ryy	2.ryy	2.ryy	2.ryy	2.ryy
.	.	.	.	.	(16aa\LL	.	.	.	.	.	.	.	.	.	.	.	.	.
.	.	.	.	.	16ff#\	.	.	.	.	.	.	.	.	.	.	.	.	.
.	.	.	.	.	16dd\	.	.	.	.	.	.	.	.	.	.	.	.	.
.	.	.	.	.	16cc\JJ)	.	.	.	.	.	.	.	.	.	.	.	.	.
=6	=6	=6	=6	=6	=6	=6	=6	=6	=6	=6	=6	=6	=6	=6	=6	=6	=6	=6
8G\L	.	2.d\	.	2.ryy	(16cc\LL	.	2.ryy	2.ryy	2.ryy	2.r	.	2.ryy	2.ryy	2.ryy	2.ryy	2.ryy	2.ryy	2.ryy
.	.	.	.	.	16b\	.	.	.	.	.	.	.	.	.	.	.	.	.
8G\	.	.	.	.	16a\	.	.	.	.	.	.	.	.	.	.	.	.	.
.	.	.	.	.	16b\JJ)	.	.	.	.	.	.	.	.	.	.	.	.	.
8B\	.	.	.	.	(4.gg\	.	.	.	.	.	.	.	.	.	.	.	.	.
8B\	.	.	.	.	.	.	.	.	.	.	.	.	.	.	.	.	.	.
8B\	.	.	.	.	.	.	.	.	.	.	.	.	.	.	.	.	.	.
8B\J	.	.	.	.	8ffn\)	.	.	.	.	.	.	.	.	.	.	.	.	.
=7	=7	=7	=7	=7	=7	=7	=7	=7	=7	=7	=7	=7	=7	=7	=7	=7	=7	=7
!	!	!	!	!	!LO:TX:a:t=P:problem=klamra łukowa bez numeru w t. 7	!	!	!	!	!	!	!	!	!	!	!	!	!
8c\L	.	2.e\	.	2.ryy	24ee\LL	.	2.ryy	2.ryy	2.ryy	2.r	.	2.ryy	2.ryy	2.ryy	2.ryy	2.ryy	2.ryy	2.ryy
.	.	.	.	.	24cc\	.	.	.	.	.	.	.	.	.	.	.	.	.
.	.	.	.	.	24b\JJ	.	.	.	.	.	.	.	.	.	.	.	.	.
8c\	.	.	.	.	24a/LL	.	.	.	.	.	.	.	.	.	.	.	.	.
.	.	.	.	.	24g#X/	.	.	.	.	.	.	.	.	.	.	.	.	.
.	.	.	.	.	24a/JJ	.	.	.	.	.	.	.	.	.	.	.	.	.
8c\	.	.	.	.	24e/LL	.	.	.	.	.	.	.	.	.	.	.	.	.
.	.	.	.	.	24cc/	.	.	.	.	.	.	.	.	.	.	.	.	.
.	.	.	.	.	24b/JJ	.	.	.	.	.	.	.	.	.	.	.	.	.
8c\	.	.	.	.	24a/LL	.	.	.	.	.	.	.	.	.	.	.	.	.
.	.	.	.	.	24g#/	.	.	.	.	.	.	.	.	.	.	.	.	.
.	.	.	.	.	24a/JJ	.	.	.	.	.	.	.	.	.	.	.	.	.
8c#X\	.	.	.	.	24ee\LL	.	.	.	.	.	.	.	.	.	.	.	.	.
.	.	.	.	.	24dd\	.	.	.	.	.	.	.	.	.	.	.	.	.
.	.	.	.	.	24cc\JJ	.	.	.	.	.	.	.	.	.	.	.	.	.
8c#\J	.	.	.	.	24b/LL	.	.	.	.	.	.	.	.	.	.	.	.	.
.	.	.	.	.	24a/	.	.	.	.	.	.	.	.	.	.	.	.	.
.	.	.	.	.	24gn/JJ	.	.	.	.	.	.	.	.	.	.	.	.	.
=8	=8	=8	=8	=8	=8	=8	=8	=8	=8	=8	=8	=8	=8	=8	=8	=8	=8	=8
4d\	.	4B/	.	2.ryy	8g/L	.	2.ryy	2.ryy	2.ryy	2.r	.	2.ryy	2.ryy	2.ryy	2.ryy	2.ryy	2.ryy	2.ryy
.	.	.	.	.	(32a/LL	.	.	.	.	.	.	.	.	.	.	.	.	.
.	.	.	.	.	32g/	.	.	.	.	.	.	.	.	.	.	.	.	.
.	.	.	.	.	32f#/	.	.	.	.	.	.	.	.	.	.	.	.	.
.	.	.	.	.	32g/JJJ)	.	.	.	.	.	.	.	.	.	.	.	.	.
!	!	!LO:TX:a:t=P:problem=mixed beam	!	!	!	!	!	!	!	!	!	!	!	!	!	!	!	!
8r	.	8A\L	.	.	4f#/	.	.	.	.	.	.	.	.	.	.	.	.	.
16D\LL	.	16f#\L	.	.	.	.	.	.	.	.	.	.	.	.	.	.	.	.
!LO:SIC:s=16C#	!	!	!	!	!	!	!	!	!	!	!	!	!	!	!	!	!	!
16C\J	.	16e\JJ	.	.	.	.	.	.	.	.	.	.	.	.	.	.	.	.
8D\	.	8f#\L	.	.	4r	.	.	.	.	.	.	.	.	.	.	.	.	.
8E\J	.	8g\J	.	.	.	.	.	.	.	.	.	.	.	.	.	.	.	.
=9	=9	=9	=9	=9	=9	=9	=9	=9	=9	=9	=9	=9	=9	=9	=9	=9	=9	=9
!	!	!	!	!	!LO:TX:a:i:t=dol&colon;	!	!	!	!	!	!	!	!	!	!	!	!	!
.	.	.	.	.	16qqdd/	.	.	.	.	.	.	.	.	.	.	.	.	.
8.F#\L	.	(8.a\L	.	2.ryy	2.ddd\	.	2.ryy	2.ryy	2.ryy	2.r	.	2.ryy	2.ryy	2.ryy	2.ryy	2.ryy	2.ryy	2.ryy
16E\Jk	.	16g\K)	.	.	.	.	.	.	.	.	.	.	.	.	.	.	.	.
!	!	!LO:TX:a:t=P:problem=niejednoznaczny zapis artykulacji [przyjęto staccatissimo]&colon;global	!	!	!	!	!	!	!	!	!	!	!	!	!	!	!	!
8F#\L	.	8a`\	.	.	.	.	.	.	.	.	.	.	.	.	.	.	.	.
8G\	.	8b`\	.	.	.	.	.	.	.	.	.	.	.	.	.	.	.	.
8A\	.	8cc`\	.	.	.	.	.	.	.	.	.	.	.	.	.	.	.	.
8G\J	.	8b`\J	.	.	.	.	.	.	.	.	.	.	.	.	.	.	.	.
=10	=10	=10	=10	=10	=10	=10	=10	=10	=10	=10	=10	=10	=10	=10	=10	=10	=10	=10
!	!	!	!	!	!LO:TX:a:t=P:problem=niejednoznaczny zapis ozdobnika [przyjęto trillo]&colon;global	!	!	!	!	!	!	!	!	!	!	!	!	!
!	!	!	!	!	!LO:TX:a:B:t=t	!	!	!	!	!	!	!	!	!	!	!	!	!
8.F#\L	.	(8.a\L	.	2.ryy	4ddd\	.	2.ryy	2.ryy	2.ryy	2.r	.	2.ryy	2.ryy	2.ryy	2.ryy	2.ryy	2.ryy	2.ryy
16G\Jk	.	16b\Jk)	.	.	.	.	.	.	.	.	.	.	.	.	.	.	.	.
4F#\	.	4a\	.	.	(16eee\LL	.	.	.	.	.	.	.	.	.	.	.	.	.
.	.	.	.	.	16ddd\	.	.	.	.	.	.	.	.	.	.	.	.	.
.	.	.	.	.	16ccc#X\	.	.	.	.	.	.	.	.	.	.	.	.	.
.	.	.	.	.	16ddd\JJ)	.	.	.	.	.	.	.	.	.	.	.	.	.
4r	.	4r	.	.	(16ccc#\LL	.	.	.	.	.	.	.	.	.	.	.	.	.
.	.	.	.	.	16ddd\	.	.	.	.	.	.	.	.	.	.	.	.	.
.	.	.	.	.	16eee\	.	.	.	.	.	.	.	.	.	.	.	.	.
.	.	.	.	.	16ddd\JJ)	.	.	.	.	.	.	.	.	.	.	.	.	.
=11	=11	=11	=11	=11	=11	=11	=11	=11	=11	=11	=11	=11	=11	=11	=11	=11	=11	=11
!	!	!	!	!	!LO:SIC:s=8qccc#	!	!	!	!	!	!	!	!	!	!	!	!	!
.	.	.	.	.	16qqccc/	.	.	.	.	.	.	.	.	.	.	.	.	.
8.G\L	.	(8.b`\L	.	2.ryy	2.ddd\	.	2.ryy	2.ryy	2.ryy	2.r	.	2.ryy	2.ryy	2.ryy	2.ryy	2.ryy	2.ryy	2.ryy
16F#\K	.	16a\K)	.	.	.	.	.	.	.	.	.	.	.	.	.	.	.	.
8G\	.	8b`\	.	.	.	.	.	.	.	.	.	.	.	.	.	.	.	.
8A\	.	8cc`\	.	.	.	.	.	.	.	.	.	.	.	.	.	.	.	.
8B\	.	8dd`\	.	.	.	.	.	.	.	.	.	.	.	.	.	.	.	.
8A\J	.	8cc`\J	.	.	.	.	.	.	.	.	.	.	.	.	.	.	.	.
=12	=12	=12	=12	=12	=12	=12	=12	=12	=12	=12	=12	=12	=12	=12	=12	=12	=12	=12
!	!	!	!	!	!LO:TX:a:B:t=t	!	!	!	!	!	!	!	!	!	!	!	!	!
8.G\L	.	(8.b\L	.	2.ryy	4ddd\	.	2.ryy	2.ryy	2.ryy	2.r	.	2.ryy	2.ryy	2.ryy	2.ryy	2.ryy	2.ryy	2.ryy
16F#\Jk	.	16a\Jk)	.	.	.	.	.	.	.	.	.	.	.	.	.	.	.	.
4G\	.	4b`\	.	.	(16eee\LL	.	.	.	.	.	.	.	.	.	.	.	.	.
.	.	.	.	.	16ddd\	.	.	.	.	.	.	.	.	.	.	.	.	.
.	.	.	.	.	16ccc#X\	.	.	.	.	.	.	.	.	.	.	.	.	.
.	.	.	.	.	16ddd\JJ)	.	.	.	.	.	.	.	.	.	.	.	.	.
4r	.	4r	.	.	(16ccc#\LL	.	.	.	.	.	.	.	.	.	.	.	.	.
.	.	.	.	.	16ddd\	.	.	.	.	.	.	.	.	.	.	.	.	.
.	.	.	.	.	16eee\	.	.	.	.	.	.	.	.	.	.	.	.	.
.	.	.	.	.	16ddd\JJ)	.	.	.	.	.	.	.	.	.	.	.	.	.
=13	=13	=13	=13	=13	=13	=13	=13	=13	=13	=13	=13	=13	=13	=13	=13	=13	=13	=13
!	!	!	!	!	!LO:SIC:s=8qccc#	!	!	!	!	!	!	!	!	!	!	!	!	!
!	!	!	!	!	!LO:TX:a:B:t=t	!	!	!	!	!	!	!	!	!	!	!	!	!
.	.	.	.	.	16qqccc/	.	.	.	.	.	.	.	.	.	.	.	.	.
2.B\	.	2.d\	.	2.ryy	4.ddd\	.	2.ryy	2.ryy	2.ryy	2.r	.	2.ryy	2.ryy	2.ryy	2.ryy	2.ryy	2.ryy	2.ryy
.	.	.	.	.	16eee\LL	.	.	.	.	.	.	.	.	.	.	.	.	.
.	.	.	.	.	16ddd\JJ	.	.	.	.	.	.	.	.	.	.	.	.	.
.	.	.	.	.	(16cccn\LL	.	.	.	.	.	.	.	.	.	.	.	.	.
.	.	.	.	.	16bb\	.	.	.	.	.	.	.	.	.	.	.	.	.
.	.	.	.	.	16aa\	.	.	.	.	.	.	.	.	.	.	.	.	.
.	.	.	.	.	16gg\JJ)	.	.	.	.	.	.	.	.	.	.	.	.	.
=14	=14	=14	=14	=14	=14	=14	=14	=14	=14	=14	=14	=14	=14	=14	=14	=14	=14	=14
2.c\	.	2.e\	.	2.ryy	(16bb\LL	.	2.ryy	2.ryy	2.ryy	2.r	.	2.ryy	2.ryy	2.ryy	2.ryy	2.ryy	2.ryy	2.ryy
.	.	.	.	.	16aa\	.	.	.	.	.	.	.	.	.	.	.	.	.
.	.	.	.	.	16gg#X\	.	.	.	.	.	.	.	.	.	.	.	.	.
.	.	.	.	.	16aa\JJ)	.	.	.	.	.	.	.	.	.	.	.	.	.
!	!	!	!	!	!LO:TX:a:B:t=t	!	!	!	!	!	!	!	!	!	!	!	!	!
.	.	.	.	.	4.aa\	.	.	.	.	.	.	.	.	.	.	.	.	.
.	.	.	.	.	16bb\LL	.	.	.	.	.	.	.	.	.	.	.	.	.
.	.	.	.	.	16ccc\JJ	.	.	.	.	.	.	.	.	.	.	.	.	.
=15	=15	=15	=15	=15	=15	=15	=15	=15	=15	=15	=15	=15	=15	=15	=15	=15	=15	=15
8B\L	.	8d\L	.	2.ryy	(16bb\LL	.	2.ryy	2.ryy	2.ryy	2.r	.	2.ryy	2.ryy	2.ryy	2.ryy	2.ryy	2.ryy	2.ryy
.	.	.	.	.	16ggn\)	.	.	.	.	.	.	.	.	.	.	.	.	.
8c\	.	8e\J	.	.	(16ccc\	.	.	.	.	.	.	.	.	.	.	.	.	.
.	.	.	.	.	16aa\JJ)	.	.	.	.	.	.	.	.	.	.	.	.	.
8d\	.	8d/L	.	.	4gg\	.	.	.	.	.	.	.	.	.	.	.	.	.
8d\	.	8B/	.	.	.	.	.	.	.	.	.	.	.	.	.	.	.	.
!	!	!	!	!	!LO:TX:a:B:t=t	!	!	!	!	!	!	!	!	!	!	!	!	!
8D\	.	8c/	.	.	4aa\	.	.	.	.	.	.	.	.	.	.	.	.	.
8D\J	.	8A/J	.	.	.	.	.	.	.	.	.	.	.	.	.	.	.	.
=16	=16	=16	=16	=16	=16	=16	=16	=16	=16	=16	=16	=16	=16	=16	=16	=16	=16	=16
!	!	!	!	!	!LO:TX:a:t=P:problem=klamra łukowa przecinek zamiast numeru&colon;global	!	!	!	!	!	!	!	!	!	!	!	!	!
4E\	.	4B/	.	2.ryy	24gg\LL	.	2.ryy	2.ryy	2.ryy	2.r	.	2.ryy	2.ryy	2.ryy	2.ryy	2.ryy	2.ryy	2.ryy
.	.	.	.	.	24bb\	.	.	.	.	.	.	.	.	.	.	.	.	.
.	.	.	.	.	24aa\JJ	.	.	.	.	.	.	.	.	.	.	.	.	.
.	.	.	.	.	24gg\LL	.	.	.	.	.	.	.	.	.	.	.	.	.
.	.	.	.	.	24bb\	.	.	.	.	.	.	.	.	.	.	.	.	.
.	.	.	.	.	24aa\JJ	.	.	.	.	.	.	.	.	.	.	.	.	.
4r	.	4r	.	.	24gg\LL	.	.	.	.	.	.	.	.	.	.	.	.	.
.	.	.	.	.	24bb\	.	.	.	.	.	.	.	.	.	.	.	.	.
.	.	.	.	.	24aa\JJ	.	.	.	.	.	.	.	.	.	.	.	.	.
.	.	.	.	.	24gg\LL	.	.	.	.	.	.	.	.	.	.	.	.	.
.	.	.	.	.	24ff#\	.	.	.	.	.	.	.	.	.	.	.	.	.
.	.	.	.	.	24ee\JJ	.	.	.	.	.	.	.	.	.	.	.	.	.
4r	.	4r	.	.	24dd\LL	.	.	.	.	.	.	.	.	.	.	.	.	.
.	.	.	.	.	24cc\	.	.	.	.	.	.	.	.	.	.	.	.	.
.	.	.	.	.	24b\JJ	.	.	.	.	.	.	.	.	.	.	.	.	.
.	.	.	.	.	24a/LL	.	.	.	.	.	.	.	.	.	.	.	.	.
.	.	.	.	.	24g/	.	.	.	.	.	.	.	.	.	.	.	.	.
.	.	.	.	.	24f#/JJ	.	.	.	.	.	.	.	.	.	.	.	.	.
=17	=17	=17	=17	=17	=17	=17	=17	=17	=17	=17	=17	=17	=17	=17	=17	=17	=17	=17
!	!	!	!	!	!LO:TX:a:t=P:problem=mixed beam	!	!	!	!	!	!	!	!	!	!	!	!	!
8r	.	8r	.	2.ryy	24e\LL	.	2.ryy	2.ryy	2.ryy	2.r	.	2.ryy	2.ryy	2.ryy	2.ryy	2.ryy	2.ryy	2.ryy
.	.	.	.	.	24dd#X\	.	.	.	.	.	.	.	.	.	.	.	.	.
.	.	.	.	.	24ee\JJ	.	.	.	.	.	.	.	.	.	.	.	.	.
!LO:TX:a:t=|	!	!	!	!	!	!	!	!	!	!	!	!	!	!	!	!	!	!
8G\L	.	8g\L	.	.	24g\LL	.	.	.	.	.	.	.	.	.	.	.	.	.
.	.	.	.	.	24ff#\	.	.	.	.	.	.	.	.	.	.	.	.	.
.	.	.	.	.	24gg\JJ	.	.	.	.	.	.	.	.	.	.	.	.	.
!LO:TX:a:t=|	!	!	!	!	!LO:TX:a:t=P:problem=mixed beam	!	!	!	!	!	!	!	!	!	!	!	!	!
8E\	.	8e\	.	.	24e\LL	.	.	.	.	.	.	.	.	.	.	.	.	.
.	.	.	.	.	24dd#\	.	.	.	.	.	.	.	.	.	.	.	.	.
.	.	.	.	.	24ee\JJ	.	.	.	.	.	.	.	.	.	.	.	.	.
!LO:TX:a:t=|	!	!	!	!	!	!	!	!	!	!	!	!	!	!	!	!	!	!
8G\	.	8g\	.	.	24g\LL	.	.	.	.	.	.	.	.	.	.	.	.	.
.	.	.	.	.	24ff#\	.	.	.	.	.	.	.	.	.	.	.	.	.
.	.	.	.	.	24gg\JJ	.	.	.	.	.	.	.	.	.	.	.	.	.
!LO:TX:a:t=|	!	!	!	!	!LO:TX:a:t=P:problem=mixed beam	!	!	!	!	!	!	!	!	!	!	!	!	!
8E\	.	8e\	.	.	24e\LL	.	.	.	.	.	.	.	.	.	.	.	.	.
.	.	.	.	.	24dd#\	.	.	.	.	.	.	.	.	.	.	.	.	.
.	.	.	.	.	24ee\JJ	.	.	.	.	.	.	.	.	.	.	.	.	.
!LO:TX:a:t=|	!	!	!	!	!LO:TX:a:t=P:problem=mixed beam	!	!	!	!	!	!	!	!	!	!	!	!	!
8C#X\J	.	8c#X\J	.	.	24c#X\LL	.	.	.	.	.	.	.	.	.	.	.	.	.
.	.	.	.	.	24b\	.	.	.	.	.	.	.	.	.	.	.	.	.
!	!	!	!	!	!LO:SIC:s=16cc#	!	!	!	!	!	!	!	!	!	!	!	!	!
.	.	.	.	.	24cc\JJ	.	.	.	.	.	.	.	.	.	.	.	.	.
=18	=18	=18	=18	=18	=18	=18	=18	=18	=18	=18	=18	=18	=18	=18	=18	=18	=18	=18
!LO:TX:a:t=|	!	!	!	!	!LO:TX:a:t=P:problem=mixed beam	!	!	!	!	!	!	!	!	!	!	!	!	!
4D\	.	4d\	.	2.ryy	24dn/LL	.	2.ryy	2.ryy	2.ryy	2.r	.	2.ryy	2.ryy	2.ryy	2.ryy	2.ryy	2.ryy	2.ryy
.	.	.	.	.	24cc#X/	.	.	.	.	.	.	.	.	.	.	.	.	.
.	.	.	.	.	24dd/JJ	.	.	.	.	.	.	.	.	.	.	.	.	.
.	.	.	.	.	24ee\LL	.	.	.	.	.	.	.	.	.	.	.	.	.
.	.	.	.	.	24ff#\	.	.	.	.	.	.	.	.	.	.	.	.	.
.	.	.	.	.	24gg\JJ	.	.	.	.	.	.	.	.	.	.	.	.	.
4r	.	4r	.	.	24aa\LL	.	.	.	.	.	.	.	.	.	.	.	.	.
.	.	.	.	.	24ccc\	.	.	.	.	.	.	.	.	.	.	.	.	.
.	.	.	.	.	24bb\JJ	.	.	.	.	.	.	.	.	.	.	.	.	.
.	.	.	.	.	24aa\LL	.	.	.	.	.	.	.	.	.	.	.	.	.
.	.	.	.	.	24ccc\	.	.	.	.	.	.	.	.	.	.	.	.	.
.	.	.	.	.	24bb\JJ	.	.	.	.	.	.	.	.	.	.	.	.	.
4r	.	4r	.	.	24aa\LL	.	.	.	.	.	.	.	.	.	.	.	.	.
.	.	.	.	.	24bb\	.	.	.	.	.	.	.	.	.	.	.	.	.
.	.	.	.	.	24ccc\JJ	.	.	.	.	.	.	.	.	.	.	.	.	.
.	.	.	.	.	24ddd\LL	.	.	.	.	.	.	.	.	.	.	.	.	.
.	.	.	.	.	24bb\	.	.	.	.	.	.	.	.	.	.	.	.	.
.	.	.	.	.	24gg\JJ	.	.	.	.	.	.	.	.	.	.	.	.	.
=19	=19	=19	=19	=19	=19	=19	=19	=19	=19	=19	=19	=19	=19	=19	=19	=19	=19	=19
!	!	!	!	!	!LO:TX:a:B:t=t	!	!	!	!	!	!	!	!	!	!	!	!	!
8d\L	.	8g\L	.	2.ryy	2.aa\	.	2.ryy	2.ryy	2.ryy	2.r	.	2.ryy	2.ryy	2.ryy	2.ryy	2.ryy	2.ryy	2.ryy
8d\	.	8g\	.	.	.	.	.	.	.	.	.	.	.	.	.	.	.	.
8d\	.	8g\	.	.	.	.	.	.	.	.	.	.	.	.	.	.	.	.
8d\	.	8g\	.	.	.	.	.	.	.	.	.	.	.	.	.	.	.	.
8D\	.	8f#\	.	.	.	.	.	.	.	.	.	.	.	.	.	.	.	.
8D\J	.	8f#\J	.	.	.	.	.	.	.	.	.	.	.	.	.	.	.	.
=20	=20	=20	=20	=20	=20	=20	=20	=20	=20	=20	=20	=20	=20	=20	=20	=20	=20	=20
!	!	!LO:TX:a:t=P:problem=klamra łukowa kropka zamiast numeru&colon;global	!	!	!LO:TX:a:t=P:problem=mixed beam	!	!	!	!	!	!	!	!	!	!	!	!	!
4G\	.	24g\LL	.	2.ryy	24gg\LL	.	2.ryy	2.ryy	2.ryy	2.r	.	2.ryy	2.ryy	2.ryy	2.ryy	2.ryy	2.ryy	2.ryy
.	.	24B\	.	.	24g\	.	.	.	.	.	.	.	.	.	.	.	.	.
.	.	24d\JJ	.	.	24b\JJ	.	.	.	.	.	.	.	.	.	.	.	.	.
.	.	24g\LL	.	.	24dd\LL	.	.	.	.	.	.	.	.	.	.	.	.	.
.	.	24b\	.	.	24gg\	.	.	.	.	.	.	.	.	.	.	.	.	.
.	.	24dd\JJ	.	.	24bb\JJ	.	.	.	.	.	.	.	.	.	.	.	.	.
4GG/	.	4b\	.	.	4gg\	.	.	.	.	.	.	.	.	.	.	.	.	.
!	!LO:DY:a	!	!	!	!	!	!	!	!	!	!	!	!	!	!	!	!	!
4r	p	4r	.	.	4r	.	.	.	.	.	.	.	.	.	.	.	.	.
=21	=21	=21	=21	=21	=21	=21	=21	=21	=21	=21	=21	=21	=21	=21	=21	=21	=21	=21
*	*	*	*	*	*	*	*	*	*	*2\right	*	*	*	*	*	*	*	*
!	!	!	!LO:DY:a	!	!LO:TX:a:t=P:p = pio&colon;&colon;global:problem	!LO:DY:a	!	!	!	!	!	!	!	!	!	!	!	!
2.G\	.	8B/L	p	2.ryy	2.g/	p	2.ryy	2.ryy	2.ryy	2.g\	Be-	2.ryy	2.ryy	2.ryy	2.ryy	2.ryy	2.ryy	2.ryy
.	.	8B/	.	.	.	.	.	.	.	.	.	.	.	.	.	.	.	.
.	.	8B/	.	.	.	.	.	.	.	.	.	.	.	.	.	.	.	.
.	.	8B/	.	.	.	.	.	.	.	.	.	.	.	.	.	.	.	.
.	.	8B/	.	.	.	.	.	.	.	.	.	.	.	.	.	.	.	.
.	.	8B/J	.	.	.	.	.	.	.	.	.	.	.	.	.	.	.	.
=22	=22	=22	=22	=22	=22	=22	=22	=22	=22	=22	=22	=22	=22	=22	=22	=22	=22	=22
2.G\	.	2.b\	.	2.ryy	2gg\	.	2.ryy	2.ryy	2.ryy	2gg\	.	2.ryy	2.ryy	2.ryy	2.ryy	2.ryy	2.ryy	2.ryy
.	.	.	.	.	(16gg\LL	.	.	.	.	16gg\LL	.	.	.	.	.	.	.	.
.	.	.	.	.	16aa\	.	.	.	.	16aa\JJ	.	.	.	.	.	.	.	.
.	.	.	.	.	16gg\	.	.	.	.	16gg\LL	-ne-	.	.	.	.	.	.	.
.	.	.	.	.	16ffn\JJ)	.	.	.	.	16ffn\JJ	.	.	.	.	.	.	.	.
=23	=23	=23	=23	=23	=23	=23	=23	=23	=23	=23	=23	=23	=23	=23	=23	=23	=23	=23
!	!	!	!	!	!LO:TX:a:B:t=t	!	!	!	!	!	!	!	!	!	!	!	!	!
2.G\	.	8cc\L	.	2.ryy	4.ee\	.	2.ryy	2.ryy	2.ryy	(4.ee\	-dic-	2.ryy	2.ryy	2.ryy	2.ryy	2.ryy	2.ryy	2.ryy
.	.	8cc\	.	.	.	.	.	.	.	.	.	.	.	.	.	.	.	.
.	.	8cc\	.	.	.	.	.	.	.	.	.	.	.	.	.	.	.	.
.	.	8cc\	.	.	16dd\LL	.	.	.	.	16dd\LL	.	.	.	.	.	.	.	.
.	.	.	.	.	16ee\JJ	.	.	.	.	16ee\JJ)	.	.	.	.	.	.	.	.
.	.	.	.	.	.	.	.	.	.	16qqaa/	.	.	.	.	.	.	.	.
.	.	8cc\	.	.	(16aa\LL	.	.	.	.	8gg\	-tus	.	.	.	.	.	.	.
.	.	.	.	.	16gg\	.	.	.	.	.	.	.	.	.	.	.	.	.
.	.	8cc\J	.	.	16ff#\	.	.	.	.	16ff#\LL	qui	.	.	.	.	.	.	.
.	.	.	.	.	16ee\JJ)	.	.	.	.	16ee\JJ	.	.	.	.	.	.	.	.
=24	=24	=24	=24	=24	=24	=24	=24	=24	=24	=24	=24	=24	=24	=24	=24	=24	=24	=24
2.G\	.	2.b\	.	2.ryy	(16ee\LL	.	2.ryy	2.ryy	2.ryy	16ee\LL	ve-	2.ryy	2.ryy	2.ryy	2.ryy	2.ryy	2.ryy	2.ryy
.	.	.	.	.	16dd\	.	.	.	.	16dd\	.	.	.	.	.	.	.	.
.	.	.	.	.	16cc\	.	.	.	.	16cc\	.	.	.	.	.	.	.	.
.	.	.	.	.	16dd\JJ)	.	.	.	.	16dd\JJ	.	.	.	.	.	.	.	.
.	.	.	.	.	4dd\	.	.	.	.	4dd\	-nit	.	.	.	.	.	.	.
.	.	.	.	.	8r	.	.	.	.	8r	.	.	.	.	.	.	.	.
.	.	.	.	.	8dd\	.	.	.	.	8dd\	qui	.	.	.	.	.	.	.
=25	=25	=25	=25	=25	=25	=25	=25	=25	=25	=25	=25	=25	=25	=25	=25	=25	=25	=25
2.F#\	.	2.a\	.	2.ryy	2cc\	.	2.ryy	2.ryy	2.ryy	2cc\	ve-	2.ryy	2.ryy	2.ryy	2.ryy	2.ryy	2.ryy	2.ryy
.	.	.	.	.	16aa\LL	.	.	.	.	16aa\LL	-nit	.	.	.	.	.	.	.
.	.	.	.	.	16ff#\	.	.	.	.	16ff#\JJ	.	.	.	.	.	.	.	.
.	.	.	.	.	16dd\	.	.	.	.	16dd\LL	in	.	.	.	.	.	.	.
.	.	.	.	.	16cc\JJ	.	.	.	.	16cc\JJ	.	.	.	.	.	.	.	.
=26	=26	=26	=26	=26	=26	=26	=26	=26	=26	=26	=26	=26	=26	=26	=26	=26	=26	=26
8G\L	.	2.d\	.	2.ryy	(16cc\LL	.	2.ryy	2.ryy	2.ryy	16cc\LL	no-	2.ryy	2.ryy	2.ryy	2.ryy	2.ryy	2.ryy	2.ryy
.	.	.	.	.	16b\	.	.	.	.	16b\	.	.	.	.	.	.	.	.
8G\	.	.	.	.	16a\	.	.	.	.	16a\	.	.	.	.	.	.	.	.
.	.	.	.	.	16b\JJ)	.	.	.	.	16b\JJ	.	.	.	.	.	.	.	.
8B\	.	.	.	.	(4.gg\	.	.	.	.	4.gg\	.	.	.	.	.	.	.	.
8B\	.	.	.	.	.	.	.	.	.	.	.	.	.	.	.	.	.	.
8B\	.	.	.	.	.	.	.	.	.	.	.	.	.	.	.	.	.	.
8B\J	.	.	.	.	8ffn\)	.	.	.	.	8ffn\	.	.	.	.	.	.	.	.
=27	=27	=27	=27	=27	=27	=27	=27	=27	=27	=27	=27	=27	=27	=27	=27	=27	=27	=27
8c\L	.	2.e\	.	2.ryy	24ee\LL	.	2.ryy	2.ryy	2.ryy	4ee\	.	2.ryy	2.ryy	2.ryy	2.ryy	2.ryy	2.ryy	2.ryy
.	.	.	.	.	24cc\	.	.	.	.	.	.	.	.	.	.	.	.	.
.	.	.	.	.	24b\JJ	.	.	.	.	.	.	.	.	.	.	.	.	.
8c\	.	.	.	.	24a/LL	.	.	.	.	.	.	.	.	.	.	.	.	.
.	.	.	.	.	24g#X/	.	.	.	.	.	.	.	.	.	.	.	.	.
.	.	.	.	.	24a/JJ	.	.	.	.	.	.	.	.	.	.	.	.	.
8c\	.	.	.	.	24e/LL	.	.	.	.	4cc\	-mi-	.	.	.	.	.	.	.
.	.	.	.	.	24cc/	.	.	.	.	.	.	.	.	.	.	.	.	.
.	.	.	.	.	24b/JJ	.	.	.	.	.	.	.	.	.	.	.	.	.
8c\	.	.	.	.	24a/LL	.	.	.	.	.	.	.	.	.	.	.	.	.
.	.	.	.	.	24g#/	.	.	.	.	.	.	.	.	.	.	.	.	.
.	.	.	.	.	24a/JJ	.	.	.	.	.	.	.	.	.	.	.	.	.
8c#X\	.	.	.	.	24ee\LL	.	.	.	.	4b\	-ne	.	.	.	.	.	.	.
.	.	.	.	.	24dd\	.	.	.	.	.	.	.	.	.	.	.	.	.
.	.	.	.	.	24cc\JJ	.	.	.	.	.	.	.	.	.	.	.	.	.
8c#\J	.	.	.	.	24b/LL	.	.	.	.	.	.	.	.	.	.	.	.	.
.	.	.	.	.	24a/	.	.	.	.	.	.	.	.	.	.	.	.	.
.	.	.	.	.	24gn/JJ	.	.	.	.	.	.	.	.	.	.	.	.	.
=28	=28	=28	=28	=28	=28	=28	=28	=28	=28	=28	=28	=28	=28	=28	=28	=28	=28	=28
4d\	.	4d\	.	2.ryy	8g/L	.	2.ryy	2.ryy	2.ryy	8b\	do-	2.ryy	2.ryy	2.ryy	2.ryy	2.ryy	2.ryy	2.ryy
.	.	.	.	.	(32a/LL	.	.	.	.	8b\	-mi-	.	.	.	.	.	.	.
.	.	.	.	.	32g/	.	.	.	.	.	.	.	.	.	.	.	.	.
.	.	.	.	.	32f#/	.	.	.	.	.	.	.	.	.	.	.	.	.
.	.	.	.	.	32g/JJJ)	.	.	.	.	.	.	.	.	.	.	.	.	.
8D\L	.	8d\L	.	.	4f#/	.	.	.	.	4a\	-ni	.	.	.	.	.	.	.
8F#\	.	8f#\	.	.	.	.	.	.	.	.	.	.	.	.	.	.	.	.
8A\	.	8a\	.	.	4r	.	.	.	.	4r	.	.	.	.	.	.	.	.
8F#\J	.	8f#\J	.	.	.	.	.	.	.	.	.	.	.	.	.	.	.	.
=29	=29	=29	=29	=29	=29	=29	=29	=29	=29	=29	=29	=29	=29	=29	=29	=29	=29	=29
8D\L	.	2.f#\	.	2.ryy	2.r	.	2.ryy	2.ryy	2.ryy	2aa\	Be-	2.ryy	2.ryy	2.ryy	2.ryy	2.ryy	2.ryy	2.ryy
8D\	.	.	.	.	.	.	.	.	.	.	.	.	.	.	.	.	.	.
8D\	.	.	.	.	.	.	.	.	.	.	.	.	.	.	.	.	.	.
8D\	.	.	.	.	.	.	.	.	.	.	.	.	.	.	.	.	.	.
8D\	.	.	.	.	.	.	.	.	.	16gg\LL	.	.	.	.	.	.	.	.
.	.	.	.	.	.	.	.	.	.	16ff#\JJ	.	.	.	.	.	.	.	.
8D\J	.	.	.	.	.	.	.	.	.	16ee\LL	-ne-	.	.	.	.	.	.	.
.	.	.	.	.	.	.	.	.	.	16dd\JJ	.	.	.	.	.	.	.	.
=30	=30	=30	=30	=30	=30	=30	=30	=30	=30	=30	=30	=30	=30	=30	=30	=30	=30	=30
2.G\	.	2.b\	.	2.ryy	(4.b\	.	2.ryy	2.ryy	2.ryy	8ff#\L	-dic-	2.ryy	2.ryy	2.ryy	2.ryy	2.ryy	2.ryy	2.ryy
.	.	.	.	.	.	.	.	.	.	8ee\J	.	.	.	.	.	.	.	.
.	.	.	.	.	.	.	.	.	.	4ee\	-tus	.	.	.	.	.	.	.
.	.	.	.	.	16cc#X\LL	.	.	.	.	.	.	.	.	.	.	.	.	.
.	.	.	.	.	16dd\JJ)	.	.	.	.	.	.	.	.	.	.	.	.	.
.	.	.	.	.	(16ee\LL	.	.	.	.	4r	.	.	.	.	.	.	.	.
.	.	.	.	.	16ff#\	.	.	.	.	.	.	.	.	.	.	.	.	.
.	.	.	.	.	16gg\	.	.	.	.	.	.	.	.	.	.	.	.	.
.	.	.	.	.	16ee\JJ)	.	.	.	.	.	.	.	.	.	.	.	.	.
=31	=31	=31	=31	=31	=31	=31	=31	=31	=31	=31	=31	=31	=31	=31	=31	=31	=31	=31
2.A\	.	2.e\	.	2.ryy	(16dd\LL	.	2.ryy	2.ryy	2.ryy	(2gg\	{Be-	2.ryy	2.ryy	2.ryy	2.ryy	2.ryy	2.ryy	2.ryy
.	.	.	.	.	16cc\	.	.	.	.	.	.	.	.	.	.	.	.	.
.	.	.	.	.	16b\	.	.	.	.	.	.	.	.	.	.	.	.	.
.	.	.	.	.	16cc\JJ)	.	.	.	.	.	.	.	.	.	.	.	.	.
.	.	.	.	.	4cc\	.	.	.	.	.	.	.	.	.	.	.	.	.
.	.	.	.	.	4r	.	.	.	.	16ff#\LL)	.	.	.	.	.	.	.	.
.	.	.	.	.	.	.	.	.	.	16ee\JJ	.	.	.	.	.	.	.	.
.	.	.	.	.	.	.	.	.	.	16dd\LL	-ne-	.	.	.	.	.	.	.
.	.	.	.	.	.	.	.	.	.	16cc#X\JJ	.	.	.	.	.	.	.	.
=32	=32	=32	=32	=32	=32	=32	=32	=32	=32	=32	=32	=32	=32	=32	=32	=32	=32	=32
2.D\	.	2.f#\	.	2.ryy	(4.dd\	.	2.ryy	2.ryy	2.ryy	8ee\L	-dic-	2.ryy	2.ryy	2.ryy	2.ryy	2.ryy	2.ryy	2.ryy
.	.	.	.	.	.	.	.	.	.	8dd\J	.	.	.	.	.	.	.	.
.	.	.	.	.	.	.	.	.	.	4dd\	-tus}	.	.	.	.	.	.	.
.	.	.	.	.	16ee\LL	.	.	.	.	.	.	.	.	.	.	.	.	.
.	.	.	.	.	16ff#\JJ)	.	.	.	.	.	.	.	.	.	.	.	.	.
.	.	.	.	.	(16gg\LL	.	.	.	.	4r	.	.	.	.	.	.	.	.
.	.	.	.	.	16aa\	.	.	.	.	.	.	.	.	.	.	.	.	.
.	.	.	.	.	16bb\	.	.	.	.	.	.	.	.	.	.	.	.	.
.	.	.	.	.	16ccc#X\JJ)	.	.	.	.	.	.	.	.	.	.	.	.	.
=33	=33	=33	=33	=33	=33	=33	=33	=33	=33	=33	=33	=33	=33	=33	=33	=33	=33	=33
8D\L	.	8f#\L	.	2.ryy	8ddd\L	.	2.ryy	2.ryy	2.ryy	(4.dd\	Be-	2.ryy	2.ryy	2.ryy	2.ryy	2.ryy	2.ryy	2.ryy
8D\	.	8f#\	.	.	16ff#\L	.	.	.	.	.	.	.	.	.	.	.	.	.
.	.	.	.	.	16gg\JJ	.	.	.	.	.	.	.	.	.	.	.	.	.
.	.	.	.	.	16qqgg/	.	.	.	.	.	.	.	.	.	.	.	.	.
8D\	.	8f#\	.	.	8aa\L	.	.	.	.	.	.	.	.	.	.	.	.	.
8D\	.	8f#\	.	.	8aa\J	.	.	.	.	16ee\LL	.	.	.	.	.	.	.	.
.	.	.	.	.	.	.	.	.	.	16ff#\JJ)	.	.	.	.	.	.	.	.
8G\	.	8b\	.	.	16bb\LL	.	.	.	.	16gg\LL	.	.	.	.	.	.	.	.
.	.	.	.	.	16ccc#X\	.	.	.	.	16aa\JJ	.	.	.	.	.	.	.	.
8G\J	.	8b\J	.	.	16ddd\	.	.	.	.	16bb\LL	-ne-	.	.	.	.	.	.	.
.	.	.	.	.	16bb\JJ	.	.	.	.	16gg\JJ	.	.	.	.	.	.	.	.
=34	=34	=34	=34	=34	=34	=34	=34	=34	=34	=34	=34	=34	=34	=34	=34	=34	=34	=34
8A\L	.	8a\L	.	2.ryy	(16bb\LL	.	2.ryy	2.ryy	2.ryy	(4ff#\	-dic-	2.ryy	2.ryy	2.ryy	2.ryy	2.ryy	2.ryy	2.ryy
.	.	.	.	.	16aa\)	.	.	.	.	.	.	.	.	.	.	.	.	.
8A\	.	8f#\	.	.	(16fff#\	.	.	.	.	.	.	.	.	.	.	.	.	.
.	.	.	.	.	16aa\JJ)	.	.	.	.	.	.	.	.	.	.	.	.	.
8A#X\	.	8g\	.	.	(16aa\LL	.	.	.	.	4ee\)	.	.	.	.	.	.	.	.
.	.	.	.	.	16gg\)	.	.	.	.	.	.	.	.	.	.	.	.	.
8A#\	.	8e\	.	.	(16eee\	.	.	.	.	.	.	.	.	.	.	.	.	.
.	.	.	.	.	16gg\JJ)	.	.	.	.	.	.	.	.	.	.	.	.	.
8B\	.	8d\	.	.	(16gg\LL	.	.	.	.	4dd\	-tus	.	.	.	.	.	.	.
.	.	.	.	.	16ff#\)	.	.	.	.	.	.	.	.	.	.	.	.	.
8B\J	.	8e\J	.	.	(16ccc#X\	.	.	.	.	.	.	.	.	.	.	.	.	.
.	.	.	.	.	16ddd\JJ)	.	.	.	.	.	.	.	.	.	.	.	.	.
=35	=35	=35	=35	=35	=35	=35	=35	=35	=35	=35	=35	=35	=35	=35	=35	=35	=35	=35
!LO:TX:a:t=P:problem=mixed beam	!	!	!	!	!	!	!	!	!	!	!	!	!	!	!	!	!	!
8G\L	.	8b\L	.	2.ryy	8bb\L	.	2.ryy	2.ryy	2.ryy	8gg\L	qui	2.ryy	2.ryy	2.ryy	2.ryy	2.ryy	2.ryy	2.ryy
8G\	.	8b\	.	.	16aa\L	.	.	.	.	16ff#\L	.	.	.	.	.	.	.	.
.	.	.	.	.	16gg\JJ	.	.	.	.	16ee\JJ	.	.	.	.	.	.	.	.
8An\	.	8a\	.	.	4ff#\	.	.	.	.	4dd\	ve-	.	.	.	.	.	.	.
8A\	.	8a\	.	.	.	.	.	.	.	.	.	.	.	.	.	.	.	.
!	!	!	!	!	!LO:TX:a:B:t=t	!	!	!	!	!	!	!	!	!	!	!	!	!
8AA\	.	8a\	.	.	4ee\	.	.	.	.	4cc#X\	.	.	.	.	.	.	.	.
8AA\J	.	8a\J	.	.	.	.	.	.	.	.	.	.	.	.	.	.	.	.
=36	=36	=36	=36	=36	=36	=36	=36	=36	=36	=36	=36	=36	=36	=36	=36	=36	=36	=36
4D\	.	4a\	.	2.ryy	16ff#\LL	.	2.ryy	2.ryy	2.ryy	4dd\	-nit	2.ryy	2.ryy	2.ryy	2.ryy	2.ryy	2.ryy	2.ryy
.	.	.	.	.	16aa\	.	.	.	.	.	.	.	.	.	.	.	.	.
.	.	.	.	.	16ddd\	.	.	.	.	.	.	.	.	.	.	.	.	.
.	.	.	.	.	16fff#\JJ	.	.	.	.	.	.	.	.	.	.	.	.	.
8r	.	8r	.	.	16eee\LL	.	.	.	.	8r	.	.	.	.	.	.	.	.
.	.	.	.	.	16ddd\	.	.	.	.	.	.	.	.	.	.	.	.	.
8d\L	.	8a\L	.	.	16ccc#X\	.	.	.	.	8ff#\	{qui	.	.	.	.	.	.	.
.	.	.	.	.	16ddd\JJ	.	.	.	.	.	.	.	.	.	.	.	.	.
8e\	.	8a\	.	.	16eee\LL	.	.	.	.	8gg\L	ve-	.	.	.	.	.	.	.
.	.	.	.	.	16ccc#\	.	.	.	.	.	.	.	.	.	.	.	.	.
8c#X\J	.	8a\J	.	.	16aa\	.	.	.	.	8ee\J	.	.	.	.	.	.	.	.
.	.	.	.	.	16gg\JJ	.	.	.	.	.	.	.	.	.	.	.	.	.
=37	=37	=37	=37	=37	=37	=37	=37	=37	=37	=37	=37	=37	=37	=37	=37	=37	=37	=37
4d\	.	4a\	.	2.ryy	16ff#\LL	.	2.ryy	2.ryy	2.ryy	4ff#\	-nit}	2.ryy	2.ryy	2.ryy	2.ryy	2.ryy	2.ryy	2.ryy
.	.	.	.	.	16aa\	.	.	.	.	.	.	.	.	.	.	.	.	.
.	.	.	.	.	16ddd\	.	.	.	.	.	.	.	.	.	.	.	.	.
.	.	.	.	.	16fff#\JJ	.	.	.	.	.	.	.	.	.	.	.	.	.
8r	.	8r	.	.	16eee\LL	.	.	.	.	8r	.	.	.	.	.	.	.	.
.	.	.	.	.	16ddd\	.	.	.	.	.	.	.	.	.	.	.	.	.
8d\L	.	8a\L	.	.	16ccc#X\	.	.	.	.	8ff#\	in	.	.	.	.	.	.	.
.	.	.	.	.	16ddd\JJ	.	.	.	.	.	.	.	.	.	.	.	.	.
8e\	.	8a\	.	.	16eee\LL	.	.	.	.	8gg\L	no-	.	.	.	.	.	.	.
.	.	.	.	.	16ccc#\	.	.	.	.	.	.	.	.	.	.	.	.	.
!LO:SIC:s=8c#	!	!	!	!	!	!	!	!	!	!	!	!	!	!	!	!	!	!
8c\J	.	8a\J	.	.	16aa\	.	.	.	.	8ee\J	.	.	.	.	.	.	.	.
.	.	.	.	.	16gg\JJ	.	.	.	.	.	.	.	.	.	.	.	.	.
=38	=38	=38	=38	=38	=38	=38	=38	=38	=38	=38	=38	=38	=38	=38	=38	=38	=38	=38
4d\	.	4a\	.	2.ryy	16ff#\LL	.	2.ryy	2.ryy	2.ryy	16dd\LL	.	2.ryy	2.ryy	2.ryy	2.ryy	2.ryy	2.ryy	2.ryy
.	.	.	.	.	16aa\	.	.	.	.	16ff#\	.	.	.	.	.	.	.	.
.	.	.	.	.	16bb\	.	.	.	.	16gg\	.	.	.	.	.	.	.	.
.	.	.	.	.	16ccc\JJ	.	.	.	.	16aa\JJ	.	.	.	.	.	.	.	.
4D\	.	4f#\	.	.	16ddd\LL	.	.	.	.	16bb\LL	.	.	.	.	.	.	.	.
.	.	.	.	.	16ccc\	.	.	.	.	16aa\	.	.	.	.	.	.	.	.
.	.	.	.	.	16bb\	.	.	.	.	16gg\	.	.	.	.	.	.	.	.
.	.	.	.	.	16aa\JJ	.	.	.	.	16ff#\JJ	.	.	.	.	.	.	.	.
8r	.	8r	.	.	16bb\LL	.	.	.	.	16gg\LL	.	.	.	.	.	.	.	.
.	.	.	.	.	16aa\	.	.	.	.	16ff#\	.	.	.	.	.	.	.	.
8D\	.	8d\	.	.	16gg\	.	.	.	.	16ee\	.	.	.	.	.	.	.	.
.	.	.	.	.	16ff#\JJ	.	.	.	.	16dd\JJ	.	.	.	.	.	.	.	.
=39	=39	=39	=39	=39	=39	=39	=39	=39	=39	=39	=39	=39	=39	=39	=39	=39	=39	=39
4A\	.	4c#X\	.	2.ryy	16ee\LL	.	2.ryy	2.ryy	2.ryy	16cc#X\LL	.	2.ryy	2.ryy	2.ryy	2.ryy	2.ryy	2.ryy	2.ryy
.	.	.	.	.	16gg\	.	.	.	.	16ee\	.	.	.	.	.	.	.	.
.	.	.	.	.	16aa\	.	.	.	.	16ff#\	.	.	.	.	.	.	.	.
.	.	.	.	.	16bb\JJ	.	.	.	.	16gg\JJ	.	.	.	.	.	.	.	.
4AA/	.	4c#\	.	.	16ccc#X\LL	.	.	.	.	16aa\LL	.	.	.	.	.	.	.	.
.	.	.	.	.	16bb\	.	.	.	.	16gg\	.	.	.	.	.	.	.	.
.	.	.	.	.	16aa\	.	.	.	.	16ff#\	.	.	.	.	.	.	.	.
.	.	.	.	.	16gg\JJ	.	.	.	.	16ee\JJ	.	.	.	.	.	.	.	.
8r	.	8r	.	.	16aa\LL	.	.	.	.	16ff#\LL	.	.	.	.	.	.	.	.
.	.	.	.	.	16gg\	.	.	.	.	16ee\	.	.	.	.	.	.	.	.
8A\	.	8a\	.	.	16ff#\	.	.	.	.	16dd\	.	.	.	.	.	.	.	.
.	.	.	.	.	16ee\JJ	.	.	.	.	16cc#\JJ	.	.	.	.	.	.	.	.
=40	=40	=40	=40	=40	=40	=40	=40	=40	=40	=40	=40	=40	=40	=40	=40	=40	=40	=40
4d\	.	4a\	.	2.ryy	16ff#\LL	.	2.ryy	2.ryy	2.ryy	8dd\L	.	2.ryy	2.ryy	2.ryy	2.ryy	2.ryy	2.ryy	2.ryy
.	.	.	.	.	16aa\	.	.	.	.	.	.	.	.	.	.	.	.	.
.	.	.	.	.	16ddd\	.	.	.	.	16ff#\L	.	.	.	.	.	.	.	.
.	.	.	.	.	16fff#\JJ	.	.	.	.	16aa\JJ	.	.	.	.	.	.	.	.
4D\	.	4a\	.	.	16eee\LL	.	.	.	.	16gg\LL	.	.	.	.	.	.	.	.
.	.	.	.	.	16ddd\	.	.	.	.	16ff#\	.	.	.	.	.	.	.	.
.	.	.	.	.	16ccc#X\	.	.	.	.	16ee\	.	.	.	.	.	.	.	.
.	.	.	.	.	16ddd\JJ	.	.	.	.	16ff#\JJ	.	.	.	.	.	.	.	.
4G\	.	4b\	.	.	16eee\LL	.	.	.	.	16gg\LL	.	.	.	.	.	.	.	.
.	.	.	.	.	16fff#\	.	.	.	.	16aa\	.	.	.	.	.	.	.	.
.	.	.	.	.	16ggg\	.	.	.	.	16bb\	.	.	.	.	.	.	.	.
.	.	.	.	.	16eee\JJ	.	.	.	.	16gg\JJ	.	.	.	.	.	.	.	.
=41	=41	=41	=41	=41	=41	=41	=41	=41	=41	=41	=41	=41	=41	=41	=41	=41	=41	=41
!LO:TX:a:t=P:problem=mixed beam	!	!	!	!	!	!	!	!	!	!	!	!	!	!	!	!	!	!
8F#\L	.	8a\L	.	2.ryy	16fff#\LL	.	2.ryy	2.ryy	2.ryy	16aa\LL	-mi-	2.ryy	2.ryy	2.ryy	2.ryy	2.ryy	2.ryy	2.ryy
.	.	.	.	.	16ddd\	.	.	.	.	16ff#\JJ	.	.	.	.	.	.	.	.
8G\	.	8b\	.	.	16ggg\	.	.	.	.	16bb\LL	-ne	.	.	.	.	.	.	.
.	.	.	.	.	16eee\JJ	.	.	.	.	16gg\JJ	.	.	.	.	.	.	.	.
8A\	.	8a\	.	.	8.ddd\L	.	.	.	.	4ff#\	Do-	.	.	.	.	.	.	.
8A\	.	8a\	.	.	.	.	.	.	.	.	.	.	.	.	.	.	.	.
.	.	.	.	.	16ddd\Jk	.	.	.	.	.	.	.	.	.	.	.	.	.
!	!	!	!	!	!LO:TX:a:B:t=t	!	!	!	!	!	!	!	!	!	!	!	!	!
8AA\	.	8a\	.	.	4eee\	.	.	.	.	4ee\	-mi-	.	.	.	.	.	.	.
8AA\J	.	8a\J	.	.	.	.	.	.	.	.	.	.	.	.	.	.	.	.
=42	=42	=42	=42	=42	=42	=42	=42	=42	=42	=42	=42	=42	=42	=42	=42	=42	=42	=42
4D\	.	(4.a\	.	2.ryy	(16ddd\LL	.	2.ryy	2.ryy	2.ryy	4.ff#\	-ni	2.ryy	2.ryy	2.ryy	2.ryy	2.ryy	2.ryy	2.ryy
!	!	!	!	!	!LO:SIC:s=16ccc#	!	!	!	!	!	!	!	!	!	!	!	!	!
.	.	.	.	.	16ccc\	.	.	.	.	.	.	.	.	.	.	.	.	.
.	.	.	.	.	16bb\	.	.	.	.	.	.	.	.	.	.	.	.	.
.	.	.	.	.	16aa\JJ)	.	.	.	.	.	.	.	.	.	.	.	.	.
!	!	!	!	!	!LO:TX:a:t=P:problem=kreseczki nad tremolo [staccatissimo lub ilość nut] w t. 42	!	!	!	!	!	!	!	!	!	!	!	!	!
4D\	.	.	.	.	4aa\	.	.	.	.	.	.	.	.	.	.	.	.	.
.	.	8dd\L)	.	.	.	.	.	.	.	8ff#\	qui	.	.	.	.	.	.	.
4r	.	(8cc#X\	.	.	4aa\	.	.	.	.	8ee\L	ve-	.	.	.	.	.	.	.
.	.	8ee\J)	.	.	.	.	.	.	.	8gg\J	.	.	.	.	.	.	.	.
=43	=43	=43	=43	=43	=43	=43	=43	=43	=43	=43	=43	=43	=43	=43	=43	=43	=43	=43
4D\	.	4.dd`\	.	2.ryy	(16ff#\LL	.	2.ryy	2.ryy	2.ryy	4.ff#\	-nit	2.ryy	2.ryy	2.ryy	2.ryy	2.ryy	2.ryy	2.ryy
.	.	.	.	.	16aa\)	.	.	.	.	.	.	.	.	.	.	.	.	.
.	.	.	.	.	(16dd\	.	.	.	.	.	.	.	.	.	.	.	.	.
.	.	.	.	.	16aa\JJ)	.	.	.	.	.	.	.	.	.	.	.	.	.
4F#\	.	.	.	.	(16ff#\LL	.	.	.	.	.	.	.	.	.	.	.	.	.
.	.	.	.	.	16aa\)	.	.	.	.	.	.	.	.	.	.	.	.	.
.	.	8f#`\L	.	.	(16ddd\	.	.	.	.	8dd\	qui	.	.	.	.	.	.	.
.	.	.	.	.	16aa\JJ)	.	.	.	.	.	.	.	.	.	.	.	.	.
4A\	.	8g`\	.	.	(16ccc#X\LL	.	.	.	.	8ee\L	ve-	.	.	.	.	.	.	.
.	.	.	.	.	16aa\)	.	.	.	.	.	.	.	.	.	.	.	.	.
.	.	8e`\J	.	.	(16eee\	.	.	.	.	8cc#X\J	.	.	.	.	.	.	.	.
.	.	.	.	.	16ccc#\JJ)	.	.	.	.	.	.	.	.	.	.	.	.	.
=44	=44	=44	=44	=44	=44	=44	=44	=44	=44	=44	=44	=44	=44	=44	=44	=44	=44	=44
4d\	.	(4.f#\	.	2.ryy	(16ddd\LL	.	2.ryy	2.ryy	2.ryy	4.dd\	-nit	2.ryy	2.ryy	2.ryy	2.ryy	2.ryy	2.ryy	2.ryy
!	!	!	!	!	!LO:SIC:s=16ccc#	!	!	!	!	!	!	!	!	!	!	!	!	!
.	.	.	.	.	16ccc\	.	.	.	.	.	.	.	.	.	.	.	.	.
.	.	.	.	.	16bb\	.	.	.	.	.	.	.	.	.	.	.	.	.
.	.	.	.	.	16aa\JJ)	.	.	.	.	.	.	.	.	.	.	.	.	.
!	!	!	!	!	!LO:TX:a:t=P:problem=kreseczki nad tremolo [staccatissimo lub ilość nut] w t. 44	!	!	!	!	!	!	!	!	!	!	!	!	!
4D\	.	.	.	.	4aa\	.	.	.	.	.	.	.	.	.	.	.	.	.
.	.	8dd\L)	.	.	.	.	.	.	.	8ff#\	{qui	.	.	.	.	.	.	.
!LO:TX:b:t=Verte	!	!	!	!	!	!	!	!	!	!	!	!	!	!	!	!	!	!
4r	.	(8cc#X\	.	.	4aa\	.	.	.	.	8ee\L	ve-	.	.	.	.	.	.	.
.	.	8ee\J)	.	.	.	.	.	.	.	8gg\J	.	.	.	.	.	.	.	.
=45	=45	=45	=45	=45	=45	=45	=45	=45	=45	=45	=45	=45	=45	=45	=45	=45	=45	=45
4D\	.	(4.dd\	.	2.ryy	(16ff#\LL	.	2.ryy	2.ryy	2.ryy	4.ff#\	-nit	2.ryy	2.ryy	2.ryy	2.ryy	2.ryy	2.ryy	2.ryy
.	.	.	.	.	16aa\)	.	.	.	.	.	.	.	.	.	.	.	.	.
.	.	.	.	.	(16dd\	.	.	.	.	.	.	.	.	.	.	.	.	.
.	.	.	.	.	16aa\JJ)	.	.	.	.	.	.	.	.	.	.	.	.	.
4F#\	.	.	.	.	(16ff#\LL	.	.	.	.	.	.	.	.	.	.	.	.	.
.	.	.	.	.	16aa\)	.	.	.	.	.	.	.	.	.	.	.	.	.
.	.	8f#\L)	.	.	(16ddd\	.	.	.	.	8dd\	qui	.	.	.	.	.	.	.
.	.	.	.	.	16aa\JJ)	.	.	.	.	.	.	.	.	.	.	.	.	.
4A\	.	(8g\	.	.	16ccc#X\LL	.	.	.	.	8ee\L	ve-	.	.	.	.	.	.	.
.	.	.	.	.	16aa\	.	.	.	.	.	.	.	.	.	.	.	.	.
.	.	8e\J)	.	.	16eee\	.	.	.	.	8cc#X\J	.	.	.	.	.	.	.	.
.	.	.	.	.	16ccc#\JJ	.	.	.	.	.	.	.	.	.	.	.	.	.
=46	=46	=46	=46	=46	=46	=46	=46	=46	=46	=46	=46	=46	=46	=46	=46	=46	=46	=46
*	*	*^	*	*	*	*	*	*	*	*	*	*	*	*	*	*	*	*
!	!	!	!	!	!	!LO:TX:a:t=P:f = for&colon;:problem	!LO:DY:a	!	!	!	!	!	!	!	!	!	!	!	!
8d\L	.	8a/L	8f#\L	.	2.ryy	2ddd\	f	2.ryy	2.ryy	2.ryy	4dd\	-nit}	2.ryy	2.ryy	2.ryy	2.ryy	2.ryy	2.ryy	2.ryy
8D\	.	8a/	8f#\	.	.	.	.	.	.	.	.	.	.	.	.	.	.	.	.
8D\	.	8a/	8f#\	.	.	.	.	.	.	.	4r	.	.	.	.	.	.	.	.
8D\	.	8a/	8f#\	.	.	.	.	.	.	.	.	.	.	.	.	.	.	.	.
8D\	.	8a/	8f#\	.	.	(16ddd\LL	.	.	.	.	4r	.	.	.	.	.	.	.	.
.	.	.	.	.	.	16cccn\	.	.	.	.	.	.	.	.	.	.	.	.	.
8D\J	.	8a/J	8f#\J	.	.	16bb\	.	.	.	.	.	.	.	.	.	.	.	.	.
.	.	.	.	.	.	16ccc\JJ)	.	.	.	.	.	.	.	.	.	.	.	.	.
*	*	*v	*v	*	*	*	*	*	*	*	*	*	*	*	*	*	*	*	*
=47	=47	=47	=47	=47	=47	=47	=47	=47	=47	=47	=47	=47	=47	=47	=47	=47	=47	=47
2.D\	.	2.g\	.	2.ryy	2bb\	.	2.ryy	2.ryy	2.ryy	2.r	.	2.ryy	2.ryy	2.ryy	2.ryy	2.ryy	2.ryy	2.ryy
.	.	.	.	.	8ddd\L	.	.	.	.	.	.	.	.	.	.	.	.	.
.	.	.	.	.	8bb\J	.	.	.	.	.	.	.	.	.	.	.	.	.
=48	=48	=48	=48	=48	=48	=48	=48	=48	=48	=48	=48	=48	=48	=48	=48	=48	=48	=48
!	!	!	!	!	!LO:TX:a:B:t=t	!	!	!	!	!	!	!	!	!	!	!	!	!
2.D\	.	2.f#\	.	2.ryy	4.aa\	.	2.ryy	2.ryy	2.ryy	2.r	.	2.ryy	2.ryy	2.ryy	2.ryy	2.ryy	2.ryy	2.ryy
.	.	.	.	.	(16bb\LL	.	.	.	.	.	.	.	.	.	.	.	.	.
.	.	.	.	.	16aa\JJ)	.	.	.	.	.	.	.	.	.	.	.	.	.
.	.	.	.	.	(16ddd\LL	.	.	.	.	.	.	.	.	.	.	.	.	.
.	.	.	.	.	16aa\	.	.	.	.	.	.	.	.	.	.	.	.	.
.	.	.	.	.	16ff#\	.	.	.	.	.	.	.	.	.	.	.	.	.
.	.	.	.	.	16aa\JJ)	.	.	.	.	.	.	.	.	.	.	.	.	.
=49	=49	=49	=49	=49	=49	=49	=49	=49	=49	=49	=49	=49	=49	=49	=49	=49	=49	=49
4AA/	.	4e\	.	2.ryy	(8.aa\L	.	2.ryy	2.ryy	2.ryy	2.r	.	2.ryy	2.ryy	2.ryy	2.ryy	2.ryy	2.ryy	2.ryy
.	.	.	.	.	16gg\Jk)	.	.	.	.	.	.	.	.	.	.	.	.	.
4D\	.	4d\	.	.	16ff#\LL	.	.	.	.	.	.	.	.	.	.	.	.	.
.	.	.	.	.	16aa\	.	.	.	.	.	.	.	.	.	.	.	.	.
.	.	.	.	.	16bb\	.	.	.	.	.	.	.	.	.	.	.	.	.
.	.	.	.	.	16ccc#X\JJ	.	.	.	.	.	.	.	.	.	.	.	.	.
4r	.	4r	.	.	16ddd\LL	.	.	.	.	.	.	.	.	.	.	.	.	.
.	.	.	.	.	16ccc#\	.	.	.	.	.	.	.	.	.	.	.	.	.
.	.	.	.	.	16bb\	.	.	.	.	.	.	.	.	.	.	.	.	.
.	.	.	.	.	16aa\JJ	.	.	.	.	.	.	.	.	.	.	.	.	.
=50	=50	=50	=50	=50	=50	=50	=50	=50	=50	=50	=50	=50	=50	=50	=50	=50	=50	=50
8r	.	8r	.	2.ryy	2aa\	.	2.ryy	2.ryy	2.ryy	2.r	.	2.ryy	2.ryy	2.ryy	2.ryy	2.ryy	2.ryy	2.ryy
8d\L	.	8f#`\L	.	.	.	.	.	.	.	.	.	.	.	.	.	.	.	.
8e\	.	8g`\	.	.	.	.	.	.	.	.	.	.	.	.	.	.	.	.
8d\	.	8f#`\	.	.	.	.	.	.	.	.	.	.	.	.	.	.	.	.
8c#X\	.	8e`\	.	.	(16bb\LL	.	.	.	.	.	.	.	.	.	.	.	.	.
.	.	.	.	.	16aa\	.	.	.	.	.	.	.	.	.	.	.	.	.
8e\J	.	8g`\J	.	.	16gg\	.	.	.	.	.	.	.	.	.	.	.	.	.
.	.	.	.	.	16aa\JJ)	.	.	.	.	.	.	.	.	.	.	.	.	.
=51	=51	=51	=51	=51	=51	=51	=51	=51	=51	=51	=51	=51	=51	=51	=51	=51	=51	=51
8d\L	.	8f#`\L	.	2.ryy	(8.aa\L	.	2.ryy	2.ryy	2.ryy	2.r	.	2.ryy	2.ryy	2.ryy	2.ryy	2.ryy	2.ryy	2.ryy
16d\L	.	(16f#\L	.	.	.	.	.	.	.	.	.	.	.	.	.	.	.	.
!LO:SIC:s=16c#	!	!	!	!	!	!	!	!	!	!	!	!	!	!	!	!	!	!
16c\JJ	.	16e\JJ)	.	.	16bb\Jk)	.	.	.	.	.	.	.	.	.	.	.	.	.
8d\L	.	8f#`\L	.	.	8aa\L	.	.	.	.	.	.	.	.	.	.	.	.	.
8D\	.	8f#`\	.	.	16ddd\L	.	.	.	.	.	.	.	.	.	.	.	.	.
.	.	.	.	.	16fff#\JJ	.	.	.	.	.	.	.	.	.	.	.	.	.
8E\	.	8g`\	.	.	(16eee\LL	.	.	.	.	.	.	.	.	.	.	.	.	.
.	.	.	.	.	16ddd\	.	.	.	.	.	.	.	.	.	.	.	.	.
8F#\J	.	8a`\J	.	.	16ccc#X\	.	.	.	.	.	.	.	.	.	.	.	.	.
.	.	.	.	.	16ddd\JJ)	.	.	.	.	.	.	.	.	.	.	.	.	.
=52	=52	=52	=52	=52	=52	=52	=52	=52	=52	=52	=52	=52	=52	=52	=52	=52	=52	=52
!LO:TX:a:t=P:problem=mixed beam	!	!	!	!	!	!	!	!	!	!	!	!	!	!	!	!	!	!
8G\L	.	8b\L	.	2.ryy	16bb\LL	.	2.ryy	2.ryy	2.ryy	2.r	.	2.ryy	2.ryy	2.ryy	2.ryy	2.ryy	2.ryy	2.ryy
.	.	.	.	.	16gg\	.	.	.	.	.	.	.	.	.	.	.	.	.
8G\	.	8b\	.	.	16ff#\	.	.	.	.	.	.	.	.	.	.	.	.	.
.	.	.	.	.	16ee\JJ	.	.	.	.	.	.	.	.	.	.	.	.	.
8A\	.	8a\	.	.	4dd\	.	.	.	.	.	.	.	.	.	.	.	.	.
8A\	.	8f#\	.	.	.	.	.	.	.	.	.	.	.	.	.	.	.	.
!	!	!	!	!	!LO:TX:a:B:t=t	!	!	!	!	!	!	!	!	!	!	!	!	!
8AA\	.	8g\	.	.	4ee\	.	.	.	.	.	.	.	.	.	.	.	.	.
8AA\J	.	8e\J	.	.	.	.	.	.	.	.	.	.	.	.	.	.	.	.
=53	=53	=53	=53	=53	=53	=53	=53	=53	=53	=53	=53	=53	=53	=53	=53	=53	=53	=53
4D\	.	8f#\L	.	2.ryy	8dd\L	.	2.ryy	2.ryy	2.ryy	2.r	.	2.ryy	2.ryy	2.ryy	2.ryy	2.ryy	2.ryy	2.ryy
.	.	8a\J	.	.	8ff#\J	.	.	.	.	.	.	.	.	.	.	.	.	.
4D\	.	4f#\	.	.	4dd\	.	.	.	.	.	.	.	.	.	.	.	.	.
!	!	!	!	!	!	!LO:DY:a	!	!	!	!	!	!	!	!	!	!	!	!
4r	.	4r	.	.	4r	p	.	.	.	.	.	.	.	.	.	.	.	.
=54	=54	=54	=54	=54	=54	=54	=54	=54	=54	=54	=54	=54	=54	=54	=54	=54	=54	=54
!	!	!	!LO:DY:a	!	!	!	!	!	!	!	!	!	!	!	!	!	!	!
8D\L	.	8f#\L	p	2.ryy	4.aa\	.	2.ryy	2.ryy	2.ryy	(4.ff#\	Be-	2.ryy	2.ryy	2.ryy	2.ryy	2.ryy	2.ryy	2.ryy
16D\L	.	16f#\L	.	.	.	.	.	.	.	.	.	.	.	.	.	.	.	.
16E\JJ	.	16g\JJ	.	.	.	.	.	.	.	.	.	.	.	.	.	.	.	.
8F#\L	.	8a\L	.	.	.	.	.	.	.	.	.	.	.	.	.	.	.	.
8G\	.	8b\	.	.	16ddd\LL	.	.	.	.	16bb\LL)	.	.	.	.	.	.	.	.
.	.	.	.	.	16bb\JJ	.	.	.	.	16gg\JJ	.	.	.	.	.	.	.	.
8A\	.	8cc#X\	.	.	16aa\LL	.	.	.	.	16ff#\LL	.	.	.	.	.	.	.	.
.	.	.	.	.	16gg\	.	.	.	.	16ee\JJ	.	.	.	.	.	.	.	.
8A\J	.	8cc#\J	.	.	16ff#\	.	.	.	.	16dd\LL	-ne-	.	.	.	.	.	.	.
.	.	.	.	.	16gg\JJ	.	.	.	.	16ee\JJ	.	.	.	.	.	.	.	.
=55	=55	=55	=55	=55	=55	=55	=55	=55	=55	=55	=55	=55	=55	=55	=55	=55	=55	=55
2.D\	.	8dd\L	.	2.ryy	16aa\LL	.	2.ryy	2.ryy	2.ryy	16ff#\LL	-dic-	2.ryy	2.ryy	2.ryy	2.ryy	2.ryy	2.ryy	2.ryy
.	.	.	.	.	16bb\	.	.	.	.	16gg\	.	.	.	.	.	.	.	.
.	.	8dd\	.	.	16aa\	.	.	.	.	16ff#\	.	.	.	.	.	.	.	.
.	.	.	.	.	16gg\JJ	.	.	.	.	16ee\JJ	.	.	.	.	.	.	.	.
.	.	8a\	.	.	8ff#\L	.	.	.	.	4dd\	-tus	.	.	.	.	.	.	.
.	.	8a\	.	.	(16dd\L	.	.	.	.	.	.	.	.	.	.	.	.	.
.	.	.	.	.	16ff#\JJ)	.	.	.	.	.	.	.	.	.	.	.	.	.
.	.	8a\	.	.	(16aa\LL	.	.	.	.	8r	.	.	.	.	.	.	.	.
.	.	.	.	.	16ff#\)	.	.	.	.	.	.	.	.	.	.	.	.	.
.	.	8a\J	.	.	(16ddd\	.	.	.	.	8ff#\	qui	.	.	.	.	.	.	.
.	.	.	.	.	16aa\JJ)	.	.	.	.	.	.	.	.	.	.	.	.	.
=56	=56	=56	=56	=56	=56	=56	=56	=56	=56	=56	=56	=56	=56	=56	=56	=56	=56	=56
!LO:TX:a:t=P:problem=mixed beam	!	!	!	!	!	!	!	!	!	!	!	!	!	!	!	!	!	!
8G\L	.	8b\L	.	2.ryy	(16aa\LL	.	2.ryy	2.ryy	2.ryy	16ff#\LL	ve-	2.ryy	2.ryy	2.ryy	2.ryy	2.ryy	2.ryy	2.ryy
.	.	.	.	.	16gg\)	.	.	.	.	16ee\	.	.	.	.	.	.	.	.
8G\	.	8b\	.	.	(16bb\	.	.	.	.	16gg\	.	.	.	.	.	.	.	.
.	.	.	.	.	16gg\JJ)	.	.	.	.	16ee\JJ	.	.	.	.	.	.	.	.
8A\	.	8a\	.	.	4ff#\	.	.	.	.	4dd\	-nit	.	.	.	.	.	.	.
8A\	.	8a\	.	.	.	.	.	.	.	.	.	.	.	.	.	.	.	.
!	!	!	!	!	!LO:TX:a:B:t=t	!	!	!	!	!	!	!	!	!	!	!	!	!
8AA\	.	8a\	.	.	4ee\	.	.	.	.	4cc#X\	{qui	.	.	.	.	.	.	.
8AA\J	.	8a\J	.	.	.	.	.	.	.	.	.	.	.	.	.	.	.	.
=57	=57	=57	=57	=57	=57	=57	=57	=57	=57	=57	=57	=57	=57	=57	=57	=57	=57	=57
4D\	.	4a\	.	2.ryy	8ff#\L	.	2.ryy	2.ryy	2.ryy	8dd\L	ve-	2.ryy	2.ryy	2.ryy	2.ryy	2.ryy	2.ryy	2.ryy
.	.	.	.	.	16gg\L	.	.	.	.	16ee\L	.	.	.	.	.	.	.	.
.	.	.	.	.	16ff#\JJ	.	.	.	.	16dd\JJ	.	.	.	.	.	.	.	.
!	!	!	!	!	!	!	!	!	!	!LO:SIC:s=4cc#	!	!	!	!	!	!	!	!
4AA/	.	(16e\LL	.	.	8ee\L	.	.	.	.	4cc\	-nit}	.	.	.	.	.	.	.
.	.	16c#X\	.	.	.	.	.	.	.	.	.	.	.	.	.	.	.	.
.	.	16d\	.	.	(16ff#\L	.	.	.	.	.	.	.	.	.	.	.	.	.
.	.	16e\JJ)	.	.	16gg\JJ	.	.	.	.	.	.	.	.	.	.	.	.	.
4r	.	(16f#\LL	.	.	16aa\LL	.	.	.	.	4r	.	.	.	.	.	.	.	.
.	.	16e\	.	.	16gg\	.	.	.	.	.	.	.	.	.	.	.	.	.
.	.	16f#\	.	.	16aa\	.	.	.	.	.	.	.	.	.	.	.	.	.
.	.	16g\JJ)	.	.	16bb\JJ)	.	.	.	.	.	.	.	.	.	.	.	.	.
=58	=58	=58	=58	=58	=58	=58	=58	=58	=58	=58	=58	=58	=58	=58	=58	=58	=58	=58
!	!	!	!	!	!LO:TX:a:B:t=t	!	!	!	!	!	!	!	!	!	!	!	!	!
8D\L	.	8f#\L	.	2.ryy	4.aa\	.	2.ryy	2.ryy	2.ryy	4.ff#\	qui	2.ryy	2.ryy	2.ryy	2.ryy	2.ryy	2.ryy	2.ryy
16D\L	.	16f#\L	.	.	.	.	.	.	.	.	.	.	.	.	.	.	.	.
16E\JJ	.	16g\JJ	.	.	.	.	.	.	.	.	.	.	.	.	.	.	.	.
8F#\L	.	8a\L	.	.	.	.	.	.	.	.	.	.	.	.	.	.	.	.
8G\	.	8b\	.	.	16ddd\LL	.	.	.	.	16bb\LL	ve-	.	.	.	.	.	.	.
.	.	.	.	.	16bb\JJ	.	.	.	.	16gg\JJ	.	.	.	.	.	.	.	.
8A\	.	8cc#X\	.	.	(16aa\LL	.	.	.	.	16ff#\LL	.	.	.	.	.	.	.	.
.	.	.	.	.	16gg\	.	.	.	.	16ee\	.	.	.	.	.	.	.	.
8A\J	.	8cc#\J	.	.	16ff#\	.	.	.	.	16dd\	.	.	.	.	.	.	.	.
.	.	.	.	.	16gg\JJ)	.	.	.	.	16ee\JJ	.	.	.	.	.	.	.	.
=59	=59	=59	=59	=59	=59	=59	=59	=59	=59	=59	=59	=59	=59	=59	=59	=59	=59	=59
2.D\	.	8dd\L	.	2.ryy	(16aa\LL	.	2.ryy	2.ryy	2.ryy	16ff#\LL	.	2.ryy	2.ryy	2.ryy	2.ryy	2.ryy	2.ryy	2.ryy
.	.	.	.	.	16bb\	.	.	.	.	16gg\	.	.	.	.	.	.	.	.
.	.	8a\	.	.	16aa\	.	.	.	.	16ff#\	.	.	.	.	.	.	.	.
.	.	.	.	.	16gg\JJ)	.	.	.	.	16ee\JJ	.	.	.	.	.	.	.	.
.	.	8a\	.	.	16ff#\LL	.	.	.	.	4dd\	-nit	.	.	.	.	.	.	.
.	.	.	.	.	16aa\	.	.	.	.	.	.	.	.	.	.	.	.	.
.	.	8a\	.	.	16ddd\	.	.	.	.	.	.	.	.	.	.	.	.	.
.	.	.	.	.	16fff#\JJ	.	.	.	.	.	.	.	.	.	.	.	.	.
.	.	8a\	.	.	16eee\LL	.	.	.	.	8r	.	.	.	.	.	.	.	.
.	.	.	.	.	16ddd\	.	.	.	.	.	.	.	.	.	.	.	.	.
.	.	8a\J	.	.	16ccc#X\	.	.	.	.	8ff#\	in	.	.	.	.	.	.	.
.	.	.	.	.	16ddd\JJ	.	.	.	.	.	.	.	.	.	.	.	.	.
=60	=60	=60	=60	=60	=60	=60	=60	=60	=60	=60	=60	=60	=60	=60	=60	=60	=60	=60
!LO:TX:a:t=P:problem=mixed beam	!	!	!	!	!	!	!	!	!	!	!	!	!	!	!	!	!	!
8G\L	.	8b\L	.	2.ryy	(16eee\LL	.	2.ryy	2.ryy	2.ryy	16gg\LL	no-	2.ryy	2.ryy	2.ryy	2.ryy	2.ryy	2.ryy	2.ryy
.	.	.	.	.	16fff#\	.	.	.	.	16aa\	.	.	.	.	.	.	.	.
8G\	.	8b\	.	.	16ggg\	.	.	.	.	16bb\	.	.	.	.	.	.	.	.
.	.	.	.	.	16eee\JJ)	.	.	.	.	16gg\JJ	.	.	.	.	.	.	.	.
8A\	.	8a\	.	.	4ddd\	.	.	.	.	4ff#\	-mi-	.	.	.	.	.	.	.
8A\	.	8a\	.	.	.	.	.	.	.	.	.	.	.	.	.	.	.	.
!	!	!	!	!	!LO:TX:a:B:t=t	!	!	!	!	!	!	!	!	!	!	!	!	!
8AA\	.	8a\	.	.	4ccc#X\	.	.	.	.	4ee\	-ne	.	.	.	.	.	.	.
8AA\J	.	8a\J	.	.	.	.	.	.	.	.	.	.	.	.	.	.	.	.
=61	=61	=61	=61	=61	=61	=61	=61	=61	=61	=61	=61	=61	=61	=61	=61	=61	=61	=61
8D\L	.	4a\	.	2.ryy	16ddd\LL	.	2.ryy	2.ryy	2.ryy	8ff#\	do-	2.ryy	2.ryy	2.ryy	2.ryy	2.ryy	2.ryy	2.ryy
.	.	.	.	.	16dd\	.	.	.	.	.	.	.	.	.	.	.	.	.
8d\J	.	.	.	.	16ee\	.	.	.	.	8ff#\	-mi-	.	.	.	.	.	.	.
.	.	.	.	.	16ff#\JJ	.	.	.	.	.	.	.	.	.	.	.	.	.
4D\	.	4a\	.	.	16gg\LL	.	.	.	.	4ff#\	-ni	.	.	.	.	.	.	.
.	.	.	.	.	16aa\	.	.	.	.	.	.	.	.	.	.	.	.	.
.	.	.	.	.	16bb\	.	.	.	.	.	.	.	.	.	.	.	.	.
!	!	!	!	!	!LO:SIC:s=16ccc#	!	!	!	!	!	!	!	!	!	!	!	!	!
.	.	.	.	.	16ccc\JJ	.	.	.	.	.	.	.	.	.	.	.	.	.
4r	.	4r	.	.	16ddd\LL	.	.	.	.	8r	.	.	.	.	.	.	.	.
.	.	.	.	.	16aa\	.	.	.	.	.	.	.	.	.	.	.	.	.
.	.	.	.	.	16gg\	.	.	.	.	8dd\	qui	.	.	.	.	.	.	.
.	.	.	.	.	16ffn\JJ	.	.	.	.	.	.	.	.	.	.	.	.	.
=62	=62	=62	=62	=62	=62	=62	=62	=62	=62	=62	=62	=62	=62	=62	=62	=62	=62	=62
8r	.	8r	.	2.ryy	16ee\LL	.	2.ryy	2.ryy	2.ryy	4.dd\	ve-	2.ryy	2.ryy	2.ryy	2.ryy	2.ryy	2.ryy	2.ryy
.	.	.	.	.	16ffn\	.	.	.	.	.	.	.	.	.	.	.	.	.
8d\L	.	8dd\L	.	.	16gg\	.	.	.	.	.	.	.	.	.	.	.	.	.
.	.	.	.	.	16ff\JJ	.	.	.	.	.	.	.	.	.	.	.	.	.
8cn\	.	8ccn\	.	.	4ff\	.	.	.	.	.	.	.	.	.	.	.	.	.
8B\	.	8b\	.	.	.	.	.	.	.	16ccn\LL	.	.	.	.	.	.	.	.
.	.	.	.	.	.	.	.	.	.	16dd\JJ	.	.	.	.	.	.	.	.
8A\	.	8a\	.	.	8r	.	.	.	.	16ee\LL	-nit	.	.	.	.	.	.	.
.	.	.	.	.	.	.	.	.	.	16dd\JJ	.	.	.	.	.	.	.	.
8G#X\J	.	8g#X\J	.	.	8ff\	.	.	.	.	16cc\LL	{qui	.	.	.	.	.	.	.
.	.	.	.	.	.	.	.	.	.	16dd\JJ	.	.	.	.	.	.	.	.
=63	=63	=63	=63	=63	=63	=63	=63	=63	=63	=63	=63	=63	=63	=63	=63	=63	=63	=63
!LO:TX:a:t=P:problem=mixed beam	!	!	!	!	!	!	!	!	!	!	!	!	!	!	!	!	!	!
8A\L	.	4a\	.	2.ryy	16ee\LL	.	2.ryy	2.ryy	2.ryy	8dd\L	ve-	2.ryy	2.ryy	2.ryy	2.ryy	2.ryy	2.ryy	2.ryy
.	.	.	.	.	16cc\	.	.	.	.	.	.	.	.	.	.	.	.	.
8AA\J	.	.	.	.	16dd\	.	.	.	.	8cc#X\J	.	.	.	.	.	.	.	.
.	.	.	.	.	16ee\JJ	.	.	.	.	.	.	.	.	.	.	.	.	.
4A\	.	4a\	.	.	16ff#\LL	.	.	.	.	4cc#\	-nit	.	.	.	.	.	.	.
.	.	.	.	.	16gg\	.	.	.	.	.	.	.	.	.	.	.	.	.
.	.	.	.	.	16aa\	.	.	.	.	.	.	.	.	.	.	.	.	.
.	.	.	.	.	16bb\JJ	.	.	.	.	.	.	.	.	.	.	.	.	.
4r	.	4r	.	.	16cccn\LL	.	.	.	.	8r	.	.	.	.	.	.	.	.
.	.	.	.	.	16gg\	.	.	.	.	.	.	.	.	.	.	.	.	.
.	.	.	.	.	16ff#\	.	.	.	.	8ccn\	qui	.	.	.	.	.	.	.
.	.	.	.	.	16ee\JJ	.	.	.	.	.	.	.	.	.	.	.	.	.
=64	=64	=64	=64	=64	=64	=64	=64	=64	=64	=64	=64	=64	=64	=64	=64	=64	=64	=64
8r	.	8r	.	2.ryy	(16dd\LL	.	2.ryy	2.ryy	2.ryy	4.cc\	ve-	2.ryy	2.ryy	2.ryy	2.ryy	2.ryy	2.ryy	2.ryy
.	.	.	.	.	16ee\	.	.	.	.	.	.	.	.	.	.	.	.	.
8c\L	.	8cc\L	.	.	16ff#\	.	.	.	.	.	.	.	.	.	.	.	.	.
.	.	.	.	.	16ee\JJ)	.	.	.	.	.	.	.	.	.	.	.	.	.
8B\	.	8b\	.	.	4ee\	.	.	.	.	.	.	.	.	.	.	.	.	.
8A\	.	8a\	.	.	.	.	.	.	.	16b\LL	.	.	.	.	.	.	.	.
.	.	.	.	.	.	.	.	.	.	16cc\JJ	.	.	.	.	.	.	.	.
8Gn\	.	8gn\	.	.	8r	.	.	.	.	16dd\LL	-nit	.	.	.	.	.	.	.
.	.	.	.	.	.	.	.	.	.	16cc\JJ	.	.	.	.	.	.	.	.
8F#\J	.	8f#\J	.	.	8aa\	.	.	.	.	16b\LL	qui	.	.	.	.	.	.	.
.	.	.	.	.	.	.	.	.	.	16cc\JJ	.	.	.	.	.	.	.	.
=65	=65	=65	=65	=65	=65	=65	=65	=65	=65	=65	=65	=65	=65	=65	=65	=65	=65	=65
4G\	.	4g\	.	2.ryy	16gg\LL	.	2.ryy	2.ryy	2.ryy	8cc\L	ve-	2.ryy	2.ryy	2.ryy	2.ryy	2.ryy	2.ryy	2.ryy
.	.	.	.	.	16dd\	.	.	.	.	.	.	.	.	.	.	.	.	.
.	.	.	.	.	16ee\	.	.	.	.	8b\J	.	.	.	.	.	.	.	.
.	.	.	.	.	16dd\JJ	.	.	.	.	.	.	.	.	.	.	.	.	.
4GG/	.	4d\	.	.	16b\LL	.	.	.	.	4b\	-nit}	.	.	.	.	.	.	.
.	.	.	.	.	16dd\	.	.	.	.	.	.	.	.	.	.	.	.	.
.	.	.	.	.	16gg\	.	.	.	.	.	.	.	.	.	.	.	.	.
.	.	.	.	.	16dd\JJ	.	.	.	.	.	.	.	.	.	.	.	.	.
8r	.	8r	.	.	16bb\LL	.	.	.	.	8r	.	.	.	.	.	.	.	.
.	.	.	.	.	16gg\	.	.	.	.	.	.	.	.	.	.	.	.	.
!	!	!	!	!	!	!	!	!	!	!LO:TX:b:t=Verte	!	!	!	!	!	!	!	!
8G\	.	8d\	.	.	16ddd\	.	.	.	.	8gg\	qui	.	.	.	.	.	.	.
.	.	.	.	.	16bb\JJ	.	.	.	.	.	.	.	.	.	.	.	.	.
=66	=66	=66	=66	=66	=66	=66	=66	=66	=66	=66	=66	=66	=66	=66	=66	=66	=66	=66
4d\	.	4d\	.	2.ryy	(8bb\L	.	2.ryy	2.ryy	2.ryy	8gg\L	ve-	2.ryy	2.ryy	2.ryy	2.ryy	2.ryy	2.ryy	2.ryy
.	.	.	.	.	8aa\J)	.	.	.	.	8ff#\J	.	.	.	.	.	.	.	.
4D\	.	4d\	.	.	16r	.	.	.	.	4ff#\	-nit	.	.	.	.	.	.	.
.	.	.	.	.	16dd\LL	.	.	.	.	.	.	.	.	.	.	.	.	.
.	.	.	.	.	16ff#\	.	.	.	.	.	.	.	.	.	.	.	.	.
.	.	.	.	.	16dd\JJ	.	.	.	.	.	.	.	.	.	.	.	.	.
8r	.	8r	.	.	16aa\LL	.	.	.	.	8r	.	.	.	.	.	.	.	.
.	.	.	.	.	16ff#\	.	.	.	.	.	.	.	.	.	.	.	.	.
8F#\	.	8d\	.	.	16ddd\	.	.	.	.	8aa\	qui	.	.	.	.	.	.	.
.	.	.	.	.	16ccc\JJ	.	.	.	.	.	.	.	.	.	.	.	.	.
=67	=67	=67	=67	=67	=67	=67	=67	=67	=67	=67	=67	=67	=67	=67	=67	=67	=67	=67
4G\	.	4d\	.	2.ryy	(8ccc\L	.	2.ryy	2.ryy	2.ryy	8aa\L	ve-	2.ryy	2.ryy	2.ryy	2.ryy	2.ryy	2.ryy	2.ryy
.	.	.	.	.	8bb\J)	.	.	.	.	8gg\J	.	.	.	.	.	.	.	.
4GG/	.	4d\	.	.	16r	.	.	.	.	4gg\	-nit	.	.	.	.	.	.	.
.	.	.	.	.	16dd\LL	.	.	.	.	.	.	.	.	.	.	.	.	.
.	.	.	.	.	16gg\	.	.	.	.	.	.	.	.	.	.	.	.	.
.	.	.	.	.	16dd\JJ	.	.	.	.	.	.	.	.	.	.	.	.	.
8r	.	8r	.	.	16bb\LL	.	.	.	.	8r	.	.	.	.	.	.	.	.
.	.	.	.	.	16gg\	.	.	.	.	.	.	.	.	.	.	.	.	.
8G\	.	8d\	.	.	16ddd\	.	.	.	.	8gg\	in	.	.	.	.	.	.	.
.	.	.	.	.	16bb\JJ	.	.	.	.	.	.	.	.	.	.	.	.	.
=68	=68	=68	=68	=68	=68	=68	=68	=68	=68	=68	=68	=68	=68	=68	=68	=68	=68	=68
8c\L	.	8e\L	.	2.ryy	24aa\LL	.	2.ryy	2.ryy	2.ryy	4ee\	no-	2.ryy	2.ryy	2.ryy	2.ryy	2.ryy	2.ryy	2.ryy
.	.	.	.	.	24ccc\	.	.	.	.	.	.	.	.	.	.	.	.	.
.	.	.	.	.	24bb\JJ	.	.	.	.	.	.	.	.	.	.	.	.	.
8c\	.	8e\	.	.	24aa\LL	.	.	.	.	.	.	.	.	.	.	.	.	.
.	.	.	.	.	24gg#X\	.	.	.	.	.	.	.	.	.	.	.	.	.
.	.	.	.	.	24aa\JJ	.	.	.	.	.	.	.	.	.	.	.	.	.
8c\	.	8e\	.	.	24ee\LL	.	.	.	.	4cc\	-mi-	.	.	.	.	.	.	.
.	.	.	.	.	24ccc\	.	.	.	.	.	.	.	.	.	.	.	.	.
.	.	.	.	.	24bb\JJ	.	.	.	.	.	.	.	.	.	.	.	.	.
8c\	.	8e\	.	.	24aa\LL	.	.	.	.	.	.	.	.	.	.	.	.	.
.	.	.	.	.	24gg#\	.	.	.	.	.	.	.	.	.	.	.	.	.
.	.	.	.	.	24aa\JJ	.	.	.	.	.	.	.	.	.	.	.	.	.
8c#X\	.	8e\	.	.	24eee\LL	.	.	.	.	4b\	-ne	.	.	.	.	.	.	.
.	.	.	.	.	24ddd\	.	.	.	.	.	.	.	.	.	.	.	.	.
.	.	.	.	.	24ccc\JJ	.	.	.	.	.	.	.	.	.	.	.	.	.
8c#\J	.	8e\J	.	.	24bb\LL	.	.	.	.	.	.	.	.	.	.	.	.	.
.	.	.	.	.	24aa\	.	.	.	.	.	.	.	.	.	.	.	.	.
.	.	.	.	.	24ggn\JJ	.	.	.	.	.	.	.	.	.	.	.	.	.
=69	=69	=69	=69	=69	=69	=69	=69	=69	=69	=69	=69	=69	=69	=69	=69	=69	=69	=69
4d\	.	4d\	.	2.ryy	8gg\L	.	2.ryy	2.ryy	2.ryy	8b\	do-	2.ryy	2.ryy	2.ryy	2.ryy	2.ryy	2.ryy	2.ryy
.	.	.	.	.	(32aa\LL	.	.	.	.	8b\	-mi-	.	.	.	.	.	.	.
.	.	.	.	.	32gg\	.	.	.	.	.	.	.	.	.	.	.	.	.
.	.	.	.	.	32ff#\	.	.	.	.	.	.	.	.	.	.	.	.	.
.	.	.	.	.	32gg\JJJ)	.	.	.	.	.	.	.	.	.	.	.	.	.
8d\L	.	8d\L	.	.	4ff#\	.	.	.	.	4a\	-ni	.	.	.	.	.	.	.
8cn\	.	8e\	.	.	.	.	.	.	.	.	.	.	.	.	.	.	.	.
8B\	.	8d\	.	.	4r	.	.	.	.	4r	.	.	.	.	.	.	.	.
8A\J	.	8c\J	.	.	.	.	.	.	.	.	.	.	.	.	.	.	.	.
=70	=70	=70	=70	=70	=70	=70	=70	=70	=70	=70	=70	=70	=70	=70	=70	=70	=70	=70
8G\L	.	8B/L	.	2.ryy	2.r	.	2.ryy	2.ryy	2.ryy	(2dd\	Be-	2.ryy	2.ryy	2.ryy	2.ryy	2.ryy	2.ryy	2.ryy
8G\	.	8B/	.	.	.	.	.	.	.	.	.	.	.	.	.	.	.	.
8G\	.	8B/	.	.	.	.	.	.	.	.	.	.	.	.	.	.	.	.
8G\	.	8B/	.	.	.	.	.	.	.	.	.	.	.	.	.	.	.	.
8G\	.	8B/	.	.	.	.	.	.	.	16cc\LL)	.	.	.	.	.	.	.	.
.	.	.	.	.	.	.	.	.	.	16b\JJ	.	.	.	.	.	.	.	.
8G\J	.	8B/J	.	.	.	.	.	.	.	16a\LL	-ne-	.	.	.	.	.	.	.
.	.	.	.	.	.	.	.	.	.	16g\JJ	.	.	.	.	.	.	.	.
=71	=71	=71	=71	=71	=71	=71	=71	=71	=71	=71	=71	=71	=71	=71	=71	=71	=71	=71
2.c\	.	2.e\	.	2.ryy	(4.ee\	.	2.ryy	2.ryy	2.ryy	8b\L	-dic-	2.ryy	2.ryy	2.ryy	2.ryy	2.ryy	2.ryy	2.ryy
.	.	.	.	.	.	.	.	.	.	8a\J	.	.	.	.	.	.	.	.
.	.	.	.	.	.	.	.	.	.	4a\	-tus	.	.	.	.	.	.	.
.	.	.	.	.	16ff#\LL	.	.	.	.	.	.	.	.	.	.	.	.	.
.	.	.	.	.	16gg\JJ)	.	.	.	.	.	.	.	.	.	.	.	.	.
.	.	.	.	.	(16aa\LL	.	.	.	.	4r	.	.	.	.	.	.	.	.
.	.	.	.	.	16bb\	.	.	.	.	.	.	.	.	.	.	.	.	.
.	.	.	.	.	16ccc\	.	.	.	.	.	.	.	.	.	.	.	.	.
.	.	.	.	.	16aa\JJ)	.	.	.	.	.	.	.	.	.	.	.	.	.
=72	=72	=72	=72	=72	=72	=72	=72	=72	=72	=72	=72	=72	=72	=72	=72	=72	=72	=72
2.d\	.	2.A/	.	2.ryy	(16gg\LL	.	2.ryy	2.ryy	2.ryy	(2cc\	Be-	2.ryy	2.ryy	2.ryy	2.ryy	2.ryy	2.ryy	2.ryy
.	.	.	.	.	16ff#\	.	.	.	.	.	.	.	.	.	.	.	.	.
.	.	.	.	.	16ee\	.	.	.	.	.	.	.	.	.	.	.	.	.
.	.	.	.	.	16ff#\JJ)	.	.	.	.	.	.	.	.	.	.	.	.	.
.	.	.	.	.	4ff#\	.	.	.	.	.	.	.	.	.	.	.	.	.
.	.	.	.	.	4r	.	.	.	.	16b\LL)	.	.	.	.	.	.	.	.
.	.	.	.	.	.	.	.	.	.	16a\JJ	.	.	.	.	.	.	.	.
.	.	.	.	.	.	.	.	.	.	16g/LL	-ne-	.	.	.	.	.	.	.
.	.	.	.	.	.	.	.	.	.	16f#/JJ	.	.	.	.	.	.	.	.
=73	=73	=73	=73	=73	=73	=73	=73	=73	=73	=73	=73	=73	=73	=73	=73	=73	=73	=73
2.G\	.	2.B/	.	2.ryy	4.b\	.	2.ryy	2.ryy	2.ryy	8a\L	-dic-	2.ryy	2.ryy	2.ryy	2.ryy	2.ryy	2.ryy	2.ryy
.	.	.	.	.	.	.	.	.	.	8g\J	.	.	.	.	.	.	.	.
.	.	.	.	.	.	.	.	.	.	4g\	-tus	.	.	.	.	.	.	.
.	.	.	.	.	16cc\LL	.	.	.	.	.	.	.	.	.	.	.	.	.
.	.	.	.	.	16dd\JJ	.	.	.	.	.	.	.	.	.	.	.	.	.
.	.	.	.	.	(16ee\LL	.	.	.	.	4r	.	.	.	.	.	.	.	.
.	.	.	.	.	16dd\	.	.	.	.	.	.	.	.	.	.	.	.	.
.	.	.	.	.	16ee\	.	.	.	.	.	.	.	.	.	.	.	.	.
.	.	.	.	.	16ff#\JJ)	.	.	.	.	.	.	.	.	.	.	.	.	.
=74	=74	=74	=74	=74	=74	=74	=74	=74	=74	=74	=74	=74	=74	=74	=74	=74	=74	=74
!LO:TX:a:t=P:problem=mixed beam	!	!	!	!	!	!	!	!	!	!	!	!	!	!	!	!	!	!
8G\L	.	8B/L	.	2.ryy	8gg\L	.	2.ryy	2.ryy	2.ryy	(4.g\	Be-	2.ryy	2.ryy	2.ryy	2.ryy	2.ryy	2.ryy	2.ryy
8G\	.	8B/	.	.	16b\L	.	.	.	.	.	.	.	.	.	.	.	.	.
.	.	.	.	.	16cc\JJ	.	.	.	.	.	.	.	.	.	.	.	.	.
.	.	.	.	.	8qcc/	.	.	.	.	.	.	.	.	.	.	.	.	.
8GG\	.	8B/	.	.	8dd\L	.	.	.	.	.	.	.	.	.	.	.	.	.
8GG\	.	8B/	.	.	8dd\J	.	.	.	.	16a\LL	.	.	.	.	.	.	.	.
.	.	.	.	.	.	.	.	.	.	16b\JJ)	.	.	.	.	.	.	.	.
8C\	.	8e/	.	.	16ee\LL	.	.	.	.	16cc\LL	.	.	.	.	.	.	.	.
.	.	.	.	.	16ff#\	.	.	.	.	16dd\JJ	.	.	.	.	.	.	.	.
8C\J	.	8e/J	.	.	16gg\	.	.	.	.	16ee\LL	-ne-	.	.	.	.	.	.	.
.	.	.	.	.	16ee\JJ	.	.	.	.	16cc\JJ	.	.	.	.	.	.	.	.
=75	=75	=75	=75	=75	=75	=75	=75	=75	=75	=75	=75	=75	=75	=75	=75	=75	=75	=75
8D\L	.	8d/L	.	2.ryy	(16ee\LL	.	2.ryy	2.ryy	2.ryy	(4b\	-dic-	2.ryy	2.ryy	2.ryy	2.ryy	2.ryy	2.ryy	2.ryy
.	.	.	.	.	16dd\)	.	.	.	.	.	.	.	.	.	.	.	.	.
8D\	.	8B/	.	.	(16bb\	.	.	.	.	.	.	.	.	.	.	.	.	.
.	.	.	.	.	16dd\JJ)	.	.	.	.	.	.	.	.	.	.	.	.	.
8D#X\	.	8c/	.	.	(16dd\LL	.	.	.	.	4a\)	.	.	.	.	.	.	.	.
.	.	.	.	.	16cc\)	.	.	.	.	.	.	.	.	.	.	.	.	.
8D#\	.	8A/	.	.	(16aa\	.	.	.	.	.	.	.	.	.	.	.	.	.
.	.	.	.	.	16cc\JJ)	.	.	.	.	.	.	.	.	.	.	.	.	.
8E\	.	8G/	.	.	(16cc\LL	.	.	.	.	4g\	-tus	.	.	.	.	.	.	.
.	.	.	.	.	16b\)	.	.	.	.	.	.	.	.	.	.	.	.	.
8E\J	.	8B/J	.	.	(16ff#\	.	.	.	.	.	.	.	.	.	.	.	.	.
.	.	.	.	.	16gg\JJ)	.	.	.	.	.	.	.	.	.	.	.	.	.
=76	=76	=76	=76	=76	=76	=76	=76	=76	=76	=76	=76	=76	=76	=76	=76	=76	=76	=76
8C/L	.	8e\L	.	2.ryy	(16ffn\LL	.	2.ryy	2.ryy	2.ryy	16a\LL	qui	2.ryy	2.ryy	2.ryy	2.ryy	2.ryy	2.ryy	2.ryy
.	.	.	.	.	16ee\)	.	.	.	.	16cc\	.	.	.	.	.	.	.	.
8C/	.	8e\	.	.	(16ccc\	.	.	.	.	16ee\	.	.	.	.	.	.	.	.
.	.	.	.	.	16aa\JJ)	.	.	.	.	16cc\JJ	.	.	.	.	.	.	.	.
8Dn/	.	8d\	.	.	4gg\	.	.	.	.	4b\	ve-	.	.	.	.	.	.	.
8D/	.	8d\	.	.	.	.	.	.	.	.	.	.	.	.	.	.	.	.
!	!	!	!	!	!LO:SIC:s=4ff#	!	!	!	!	!	!	!	!	!	!	!	!	!
!	!	!	!	!	!LO:TX:a:B:t=t	!	!	!	!	!	!	!	!	!	!	!	!	!
8DD/	.	8d\	.	.	4ff\	.	.	.	.	4a\	.	.	.	.	.	.	.	.
8DD/J	.	8d\J	.	.	.	.	.	.	.	.	.	.	.	.	.	.	.	.
=77	=77	=77	=77	=77	=77	=77	=77	=77	=77	=77	=77	=77	=77	=77	=77	=77	=77	=77
4GG/	.	4d\	.	2.ryy	16gg\LL	.	2.ryy	2.ryy	2.ryy	4b\	-nit	2.ryy	2.ryy	2.ryy	2.ryy	2.ryy	2.ryy	2.ryy
.	.	.	.	.	16dd\	.	.	.	.	.	.	.	.	.	.	.	.	.
.	.	.	.	.	16gg\	.	.	.	.	.	.	.	.	.	.	.	.	.
.	.	.	.	.	16bb\JJ	.	.	.	.	.	.	.	.	.	.	.	.	.
8r	.	8r	.	.	16aa\LL	.	.	.	.	8r	.	.	.	.	.	.	.	.
.	.	.	.	.	16gg\	.	.	.	.	.	.	.	.	.	.	.	.	.
8G\L	.	8d\L	.	.	16ff#\	.	.	.	.	8b\	qui	.	.	.	.	.	.	.
.	.	.	.	.	16gg\JJ	.	.	.	.	.	.	.	.	.	.	.	.	.
8A\	.	8d\	.	.	16aa\LL	.	.	.	.	8cc\L	ve-	.	.	.	.	.	.	.
.	.	.	.	.	16ff#\	.	.	.	.	.	.	.	.	.	.	.	.	.
8F#\J	.	8d\J	.	.	16dd\	.	.	.	.	8a\J	.	.	.	.	.	.	.	.
.	.	.	.	.	16cc\JJ	.	.	.	.	.	.	.	.	.	.	.	.	.
=78	=78	=78	=78	=78	=78	=78	=78	=78	=78	=78	=78	=78	=78	=78	=78	=78	=78	=78
4G\	.	4d\	.	2.ryy	16b\LL	.	2.ryy	2.ryy	2.ryy	4b\	-nit	2.ryy	2.ryy	2.ryy	2.ryy	2.ryy	2.ryy	2.ryy
.	.	.	.	.	16dd\	.	.	.	.	.	.	.	.	.	.	.	.	.
.	.	.	.	.	16gg\	.	.	.	.	.	.	.	.	.	.	.	.	.
.	.	.	.	.	16bb\JJ	.	.	.	.	.	.	.	.	.	.	.	.	.
8r	.	8r	.	.	16aa\LL	.	.	.	.	8r	.	.	.	.	.	.	.	.
.	.	.	.	.	16gg\	.	.	.	.	.	.	.	.	.	.	.	.	.
8G\L	.	8d\L	.	.	16ff#\	.	.	.	.	8b\	in	.	.	.	.	.	.	.
.	.	.	.	.	16gg\JJ	.	.	.	.	.	.	.	.	.	.	.	.	.
8A\	.	8d\	.	.	16aa\LL	.	.	.	.	8cc\L	no-	.	.	.	.	.	.	.
.	.	.	.	.	16ff#\	.	.	.	.	.	.	.	.	.	.	.	.	.
8F#\J	.	8d\J	.	.	16dd\	.	.	.	.	8a\J	.	.	.	.	.	.	.	.
.	.	.	.	.	16cc\JJ	.	.	.	.	.	.	.	.	.	.	.	.	.
=79	=79	=79	=79	=79	=79	=79	=79	=79	=79	=79	=79	=79	=79	=79	=79	=79	=79	=79
4G\	.	4d\	.	2.ryy	16b\LL	.	2.ryy	2.ryy	2.ryy	16g\LL	.	2.ryy	2.ryy	2.ryy	2.ryy	2.ryy	2.ryy	2.ryy
.	.	.	.	.	16dd\	.	.	.	.	16b\	.	.	.	.	.	.	.	.
.	.	.	.	.	16ee\	.	.	.	.	16cc\	.	.	.	.	.	.	.	.
.	.	.	.	.	16ff#\JJ	.	.	.	.	16dd\JJ	.	.	.	.	.	.	.	.
4GG/	.	4d\	.	.	16gg\LL	.	.	.	.	16ee\LL	.	.	.	.	.	.	.	.
.	.	.	.	.	16ff#\	.	.	.	.	16dd\	.	.	.	.	.	.	.	.
.	.	.	.	.	16ee\	.	.	.	.	16cc\	.	.	.	.	.	.	.	.
.	.	.	.	.	16dd\JJ	.	.	.	.	16b\JJ	.	.	.	.	.	.	.	.
8r	.	8r	.	.	16ee\LL	.	.	.	.	16cc\LL	.	.	.	.	.	.	.	.
.	.	.	.	.	16dd\	.	.	.	.	16b\	.	.	.	.	.	.	.	.
8G\	.	8g\	.	.	16cc\	.	.	.	.	16a\	.	.	.	.	.	.	.	.
.	.	.	.	.	16b\JJ	.	.	.	.	16g\JJ	.	.	.	.	.	.	.	.
=80	=80	=80	=80	=80	=80	=80	=80	=80	=80	=80	=80	=80	=80	=80	=80	=80	=80	=80
4d\	.	4f#\	.	2.ryy	16a\LL	.	2.ryy	2.ryy	2.ryy	16f#\LL	.	2.ryy	2.ryy	2.ryy	2.ryy	2.ryy	2.ryy	2.ryy
.	.	.	.	.	16cc\	.	.	.	.	16a\	.	.	.	.	.	.	.	.
.	.	.	.	.	16dd\	.	.	.	.	16b\	.	.	.	.	.	.	.	.
.	.	.	.	.	16ee\JJ	.	.	.	.	16cc\JJ	.	.	.	.	.	.	.	.
4D\	.	4f#\	.	.	16ff#\LL	.	.	.	.	16dd\LL	.	.	.	.	.	.	.	.
.	.	.	.	.	16ee\	.	.	.	.	16cc\	.	.	.	.	.	.	.	.
.	.	.	.	.	16dd\	.	.	.	.	16b\	.	.	.	.	.	.	.	.
.	.	.	.	.	16cc\JJ	.	.	.	.	16a\JJ	.	.	.	.	.	.	.	.
8r	.	8r	.	.	16dd\LL	.	.	.	.	16b\LL	.	.	.	.	.	.	.	.
.	.	.	.	.	16cc\	.	.	.	.	16a\	.	.	.	.	.	.	.	.
8D\	.	8f#\	.	.	16b\	.	.	.	.	16g\	.	.	.	.	.	.	.	.
.	.	.	.	.	16a\JJ	.	.	.	.	16f#\JJ	.	.	.	.	.	.	.	.
=81	=81	=81	=81	=81	=81	=81	=81	=81	=81	=81	=81	=81	=81	=81	=81	=81	=81	=81
4G\	.	4g\	.	2.ryy	16b\LL	.	2.ryy	2.ryy	2.ryy	8g\L	.	2.ryy	2.ryy	2.ryy	2.ryy	2.ryy	2.ryy	2.ryy
.	.	.	.	.	16dd\	.	.	.	.	.	.	.	.	.	.	.	.	.
.	.	.	.	.	16gg\	.	.	.	.	16b\L	.	.	.	.	.	.	.	.
.	.	.	.	.	16bb\JJ	.	.	.	.	16dd\JJ	.	.	.	.	.	.	.	.
4B\	.	4g\	.	.	16aa\LL	.	.	.	.	16cc\LL	.	.	.	.	.	.	.	.
.	.	.	.	.	16gg\	.	.	.	.	16b\	.	.	.	.	.	.	.	.
.	.	.	.	.	16ff#\	.	.	.	.	16a\	.	.	.	.	.	.	.	.
.	.	.	.	.	16gg\JJ	.	.	.	.	16b\JJ	.	.	.	.	.	.	.	.
4c\	.	4e\	.	.	16aa\LL	.	.	.	.	16cc\LL	.	.	.	.	.	.	.	.
.	.	.	.	.	16bb\	.	.	.	.	16dd\	.	.	.	.	.	.	.	.
.	.	.	.	.	16ccc\	.	.	.	.	16ee\	.	.	.	.	.	.	.	.
.	.	.	.	.	16aa\JJ	.	.	.	.	16cc\JJ	.	.	.	.	.	.	.	.
=82	=82	=82	=82	=82	=82	=82	=82	=82	=82	=82	=82	=82	=82	=82	=82	=82	=82	=82
!LO:TX:a:t=P:problem=mixed beam	!	!	!	!	!	!	!	!	!	!	!	!	!	!	!	!	!	!
8B\L	.	8d\L	.	2.ryy	16bb\LL	.	2.ryy	2.ryy	2.ryy	16dd\LL	-mi-	2.ryy	2.ryy	2.ryy	2.ryy	2.ryy	2.ryy	2.ryy
.	.	.	.	.	16gg\	.	.	.	.	16b\JJ	.	.	.	.	.	.	.	.
8c\	.	8e\	.	.	16ccc\	.	.	.	.	16ee\LL	-ne	.	.	.	.	.	.	.
.	.	.	.	.	16aa\JJ	.	.	.	.	16cc\JJ	.	.	.	.	.	.	.	.
8d\	.	8d\	.	.	8.gg\L	.	.	.	.	4b\	do-	.	.	.	.	.	.	.
8d\	.	8d\	.	.	.	.	.	.	.	.	.	.	.	.	.	.	.	.
.	.	.	.	.	16aa\Jk	.	.	.	.	.	.	.	.	.	.	.	.	.
!	!	!	!	!	!LO:TX:a:B:t=t	!	!	!	!	!	!	!	!	!	!	!	!	!
8D\	.	8d\	.	.	4aa\	.	.	.	.	4a\	-mi-	.	.	.	.	.	.	.
8D\J	.	8d\J	.	.	.	.	.	.	.	.	.	.	.	.	.	.	.	.
=83	=83	=83	=83	=83	=83	=83	=83	=83	=83	=83	=83	=83	=83	=83	=83	=83	=83	=83
4G\	.	(4.d\	.	2.ryy	(16gg\LL	.	2.ryy	2.ryy	2.ryy	4.b\	-ni	2.ryy	2.ryy	2.ryy	2.ryy	2.ryy	2.ryy	2.ryy
.	.	.	.	.	16ff#\	.	.	.	.	.	.	.	.	.	.	.	.	.
.	.	.	.	.	16ee\	.	.	.	.	.	.	.	.	.	.	.	.	.
.	.	.	.	.	16dd\JJ)	.	.	.	.	.	.	.	.	.	.	.	.	.
!	!	!	!	!	!LO:TX:a:t=P:problem=kreseczki nad tremolo [staccatissimo lub ilość nut] w t. 83	!	!	!	!	!	!	!	!	!	!	!	!	!
4GG/	.	.	.	.	4dd\	.	.	.	.	.	.	.	.	.	.	.	.	.
.	.	8g\L)	.	.	.	.	.	.	.	8b\	qui	.	.	.	.	.	.	.
4r	.	(8f#\	.	.	4dd\	.	.	.	.	8a\L	ve-	.	.	.	.	.	.	.
.	.	8a\J)	.	.	.	.	.	.	.	8cc\J	.	.	.	.	.	.	.	.
=84	=84	=84	=84	=84	=84	=84	=84	=84	=84	=84	=84	=84	=84	=84	=84	=84	=84	=84
4GG/	.	(4.g\	.	2.ryy	(16b\LL	.	2.ryy	2.ryy	2.ryy	4.b\	-nit	2.ryy	2.ryy	2.ryy	2.ryy	2.ryy	2.ryy	2.ryy
.	.	.	.	.	16dd\)	.	.	.	.	.	.	.	.	.	.	.	.	.
.	.	.	.	.	(16g\	.	.	.	.	.	.	.	.	.	.	.	.	.
.	.	.	.	.	16dd\JJ)	.	.	.	.	.	.	.	.	.	.	.	.	.
4BB/	.	.	.	.	(16b\LL	.	.	.	.	.	.	.	.	.	.	.	.	.
.	.	.	.	.	16dd\)	.	.	.	.	.	.	.	.	.	.	.	.	.
.	.	8B/L)	.	.	(16gg\	.	.	.	.	8g\	{qui	.	.	.	.	.	.	.
.	.	.	.	.	16dd\JJ)	.	.	.	.	.	.	.	.	.	.	.	.	.
4D\	.	(8c/	.	.	(16ff#\LL	.	.	.	.	8a\L	ve-	.	.	.	.	.	.	.
.	.	.	.	.	16dd\)	.	.	.	.	.	.	.	.	.	.	.	.	.
.	.	8A/J)	.	.	(16aa\	.	.	.	.	8f#\J	.	.	.	.	.	.	.	.
.	.	.	.	.	16ff#\JJ)	.	.	.	.	.	.	.	.	.	.	.	.	.
=85	=85	=85	=85	=85	=85	=85	=85	=85	=85	=85	=85	=85	=85	=85	=85	=85	=85	=85
4G\	.	(4.B/	.	2.ryy	(16gg\LL	.	2.ryy	2.ryy	2.ryy	4.g\	-nit	2.ryy	2.ryy	2.ryy	2.ryy	2.ryy	2.ryy	2.ryy
.	.	.	.	.	16ff#\	.	.	.	.	.	.	.	.	.	.	.	.	.
.	.	.	.	.	16ee\	.	.	.	.	.	.	.	.	.	.	.	.	.
.	.	.	.	.	16dd\JJ)	.	.	.	.	.	.	.	.	.	.	.	.	.
!	!	!	!	!	!LO:TX:a:t=P:problem=kreseczki nad tremolo [staccatissimo lub ilość nut] w t. 85	!	!	!	!	!	!	!	!	!	!	!	!	!
4GG/	.	.	.	.	4dd\	.	.	.	.	.	.	.	.	.	.	.	.	.
.	.	8g\L)	.	.	.	.	.	.	.	8b\	qui	.	.	.	.	.	.	.
4r	.	(8f#\	.	.	4dd\	.	.	.	.	8a\L	ve-	.	.	.	.	.	.	.
.	.	8a\J)	.	.	.	.	.	.	.	8cc\J	.	.	.	.	.	.	.	.
=86	=86	=86	=86	=86	=86	=86	=86	=86	=86	=86	=86	=86	=86	=86	=86	=86	=86	=86
4GG/	.	(4.g\	.	2.ryy	(16b\LL	.	2.ryy	2.ryy	2.ryy	4.b\	-nit	2.ryy	2.ryy	2.ryy	2.ryy	2.ryy	2.ryy	2.ryy
.	.	.	.	.	16dd\)	.	.	.	.	.	.	.	.	.	.	.	.	.
.	.	.	.	.	(16g\	.	.	.	.	.	.	.	.	.	.	.	.	.
.	.	.	.	.	16dd\JJ)	.	.	.	.	.	.	.	.	.	.	.	.	.
4BB/	.	.	.	.	(16b\LL	.	.	.	.	.	.	.	.	.	.	.	.	.
.	.	.	.	.	16dd\)	.	.	.	.	.	.	.	.	.	.	.	.	.
.	.	8B/L)	.	.	(16gg\	.	.	.	.	8g\	qui	.	.	.	.	.	.	.
.	.	.	.	.	16dd\JJ)	.	.	.	.	.	.	.	.	.	.	.	.	.
4D\	.	(8c/	.	.	(16ff#\LL	.	.	.	.	8a\L	ve-	.	.	.	.	.	.	.
.	.	.	.	.	16dd\)	.	.	.	.	.	.	.	.	.	.	.	.	.
.	.	8A/J)	.	.	(16aa\	.	.	.	.	8f#\J	.	.	.	.	.	.	.	.
.	.	.	.	.	16ff#\JJ)	.	.	.	.	.	.	.	.	.	.	.	.	.
=87	=87	=87	=87	=87	=87	=87	=87	=87	=87	=87	=87	=87	=87	=87	=87	=87	=87	=87
!	!	!LO:TX:a:t=P:f = f&colon;:problem	!	!	!LO:TX:a:B:t=t	!	!	!	!	!	!	!	!	!	!	!	!	!
!	!	!LO:TX:a:t=P:problem=mixed beam	!LO:DY:a	!	!LO:TX:a:t=P:f = f&colon;:problem	!LO:DY:a	!	!	!	!	!	!	!	!	!	!	!	!
2.G\	.	8B\L	f	2.ryy	2.gg\	f	2.ryy	2.ryy	2.ryy	4g\	-nit}	2.ryy	2.ryy	2.ryy	2.ryy	2.ryy	2.ryy	2.ryy
.	.	8b\	.	.	.	.	.	.	.	.	.	.	.	.	.	.	.	.
!	!	!	!	!	!	!	!	!	!	!LO:N:vis=4	!	!	!	!	!	!	!	!
.	.	8b\	.	.	.	.	.	.	.	2r	.	.	.	.	.	.	.	.
.	.	8b\	.	.	.	.	.	.	.	.	.	.	.	.	.	.	.	.
.	.	8b\	.	.	.	.	.	.	.	.	.	.	.	.	.	.	.	.
.	.	8b\J	.	.	.	.	.	.	.	.	.	.	.	.	.	.	.	.
.	.	.	.	.	32qqgg/LLL	.	.	.	.	.	.	.	.	.	.	.	.	.
.	.	.	.	.	32qqaa/	.	.	.	.	.	.	.	.	.	.	.	.	.
.	.	.	.	.	32qqgg/	.	.	.	.	.	.	.	.	.	.	.	.	.
.	.	.	.	.	32qqff#/	.	.	.	.	.	.	.	.	.	.	.	.	.
.	.	.	.	.	32qqgg/	.	.	.	.	.	.	.	.	.	.	.	.	.
.	.	.	.	.	32qqaa/JJJ	.	.	.	.	.	.	.	.	.	.	.	.	.
=88	=88	=88	=88	=88	=88	=88	=88	=88	=88	=88	=88	=88	=88	=88	=88	=88	=88	=88
2.G\	.	2.b\	.	2.ryy	2gg\	.	2.ryy	2.ryy	2.ryy	2.r	.	2.ryy	2.ryy	2.ryy	2.ryy	2.ryy	2.ryy	2.ryy
.	.	.	.	.	(16gg\LL	.	.	.	.	.	.	.	.	.	.	.	.	.
.	.	.	.	.	16aa\	.	.	.	.	.	.	.	.	.	.	.	.	.
.	.	.	.	.	16gg\	.	.	.	.	.	.	.	.	.	.	.	.	.
.	.	.	.	.	16ffn\JJ)	.	.	.	.	.	.	.	.	.	.	.	.	.
=89	=89	=89	=89	=89	=89	=89	=89	=89	=89	=89	=89	=89	=89	=89	=89	=89	=89	=89
8G\L	.	2.cc\	.	2.ryy	(4.ee\	.	2.ryy	2.ryy	2.ryy	2.r	.	2.ryy	2.ryy	2.ryy	2.ryy	2.ryy	2.ryy	2.ryy
8G\	.	.	.	.	.	.	.	.	.	.	.	.	.	.	.	.	.	.
8G\	.	.	.	.	.	.	.	.	.	.	.	.	.	.	.	.	.	.
8G\	.	.	.	.	16dd\LL	.	.	.	.	.	.	.	.	.	.	.	.	.
.	.	.	.	.	16ee\JJ)	.	.	.	.	.	.	.	.	.	.	.	.	.
8G\	.	.	.	.	16aa\LL	.	.	.	.	.	.	.	.	.	.	.	.	.
.	.	.	.	.	16gg\	.	.	.	.	.	.	.	.	.	.	.	.	.
8G\J	.	.	.	.	16ff#\	.	.	.	.	.	.	.	.	.	.	.	.	.
.	.	.	.	.	16ee\JJ	.	.	.	.	.	.	.	.	.	.	.	.	.
=90	=90	=90	=90	=90	=90	=90	=90	=90	=90	=90	=90	=90	=90	=90	=90	=90	=90	=90
2.G\	.	2.b\	.	2.ryy	(16ee\LL	.	2.ryy	2.ryy	2.ryy	2.r	.	2.ryy	2.ryy	2.ryy	2.ryy	2.ryy	2.ryy	2.ryy
.	.	.	.	.	16dd\	.	.	.	.	.	.	.	.	.	.	.	.	.
.	.	.	.	.	16cc\	.	.	.	.	.	.	.	.	.	.	.	.	.
.	.	.	.	.	16dd\JJ)	.	.	.	.	.	.	.	.	.	.	.	.	.
.	.	.	.	.	4dd\	.	.	.	.	.	.	.	.	.	.	.	.	.
.	.	.	.	.	8r	.	.	.	.	.	.	.	.	.	.	.	.	.
.	.	.	.	.	8dd\	.	.	.	.	.	.	.	.	.	.	.	.	.
=91	=91	=91	=91	=91	=91	=91	=91	=91	=91	=91	=91	=91	=91	=91	=91	=91	=91	=91
2.F#\	.	2.a\	.	2.ryy	2cc\	.	2.ryy	2.ryy	2.ryy	2.r	.	2.ryy	2.ryy	2.ryy	2.ryy	2.ryy	2.ryy	2.ryy
.	.	.	.	.	16aa\LL	.	.	.	.	.	.	.	.	.	.	.	.	.
.	.	.	.	.	16ff#\	.	.	.	.	.	.	.	.	.	.	.	.	.
.	.	.	.	.	16dd\	.	.	.	.	.	.	.	.	.	.	.	.	.
.	.	.	.	.	16cc\JJ	.	.	.	.	.	.	.	.	.	.	.	.	.
=92	=92	=92	=92	=92	=92	=92	=92	=92	=92	=92	=92	=92	=92	=92	=92	=92	=92	=92
8G\L	.	2.d\	.	2.ryy	(16cc\LL	.	2.ryy	2.ryy	2.ryy	2.r	.	2.ryy	2.ryy	2.ryy	2.ryy	2.ryy	2.ryy	2.ryy
.	.	.	.	.	16b\	.	.	.	.	.	.	.	.	.	.	.	.	.
8G\	.	.	.	.	16a\	.	.	.	.	.	.	.	.	.	.	.	.	.
.	.	.	.	.	16b\JJ)	.	.	.	.	.	.	.	.	.	.	.	.	.
8B\	.	.	.	.	(4.gg\	.	.	.	.	.	.	.	.	.	.	.	.	.
8B\	.	.	.	.	.	.	.	.	.	.	.	.	.	.	.	.	.	.
8B\	.	.	.	.	.	.	.	.	.	.	.	.	.	.	.	.	.	.
8B\J	.	.	.	.	8ffn\)	.	.	.	.	.	.	.	.	.	.	.	.	.
=93	=93	=93	=93	=93	=93	=93	=93	=93	=93	=93	=93	=93	=93	=93	=93	=93	=93	=93
8c\L	.	2.e\	.	2.ryy	24ee\LL	.	2.ryy	2.ryy	2.ryy	2.r	.	2.ryy	2.ryy	2.ryy	2.ryy	2.ryy	2.ryy	2.ryy
.	.	.	.	.	24cc\	.	.	.	.	.	.	.	.	.	.	.	.	.
.	.	.	.	.	24b\JJ	.	.	.	.	.	.	.	.	.	.	.	.	.
8c\	.	.	.	.	24a/LL	.	.	.	.	.	.	.	.	.	.	.	.	.
.	.	.	.	.	24g#X/	.	.	.	.	.	.	.	.	.	.	.	.	.
.	.	.	.	.	24a/JJ	.	.	.	.	.	.	.	.	.	.	.	.	.
8c\	.	.	.	.	24e/LL	.	.	.	.	.	.	.	.	.	.	.	.	.
.	.	.	.	.	24cc/	.	.	.	.	.	.	.	.	.	.	.	.	.
.	.	.	.	.	24b/JJ	.	.	.	.	.	.	.	.	.	.	.	.	.
8c\	.	.	.	.	24a/LL	.	.	.	.	.	.	.	.	.	.	.	.	.
.	.	.	.	.	24g#/	.	.	.	.	.	.	.	.	.	.	.	.	.
.	.	.	.	.	24a/JJ	.	.	.	.	.	.	.	.	.	.	.	.	.
8c#X\	.	.	.	.	24ee\LL	.	.	.	.	.	.	.	.	.	.	.	.	.
.	.	.	.	.	24dd\	.	.	.	.	.	.	.	.	.	.	.	.	.
.	.	.	.	.	24cc\JJ	.	.	.	.	.	.	.	.	.	.	.	.	.
8c#\J	.	.	.	.	24b/LL	.	.	.	.	.	.	.	.	.	.	.	.	.
.	.	.	.	.	24a/	.	.	.	.	.	.	.	.	.	.	.	.	.
.	.	.	.	.	24gn/JJ	.	.	.	.	.	.	.	.	.	.	.	.	.
=94	=94	=94	=94	=94	=94	=94	=94	=94	=94	=94	=94	=94	=94	=94	=94	=94	=94	=94
4d\	.	4B/	.	2.ryy	8g/L	.	2.ryy	2.ryy	2.ryy	2.r	.	2.ryy	2.ryy	2.ryy	2.ryy	2.ryy	2.ryy	2.ryy
.	.	.	.	.	(32a/LL	.	.	.	.	.	.	.	.	.	.	.	.	.
.	.	.	.	.	32g/	.	.	.	.	.	.	.	.	.	.	.	.	.
.	.	.	.	.	32f#/	.	.	.	.	.	.	.	.	.	.	.	.	.
.	.	.	.	.	32g/JJJ)	.	.	.	.	.	.	.	.	.	.	.	.	.
!	!	!LO:TX:a:t=P:problem=mixed beam	!	!	!	!	!	!	!	!	!	!	!	!	!	!	!	!
8r	.	8A\L	.	.	4f#/	.	.	.	.	.	.	.	.	.	.	.	.	.
16D\LL	.	16f#\L	.	.	.	.	.	.	.	.	.	.	.	.	.	.	.	.
16C\J	.	16e\JJ	.	.	.	.	.	.	.	.	.	.	.	.	.	.	.	.
!	!	!	!	!	!LO:TX:a:i:t=dol&colon;	!	!	!	!	!	!	!	!	!	!	!	!	!
8D\	.	8f#\L	.	.	4r	.	.	.	.	.	.	.	.	.	.	.	.	.
8E\J	.	8g\J	.	.	.	.	.	.	.	.	.	.	.	.	.	.	.	.
=95	=95	=95	=95	=95	=95	=95	=95	=95	=95	=95	=95	=95	=95	=95	=95	=95	=95	=95
.	.	.	.	.	16qqdd/	.	.	.	.	.	.	.	.	.	.	.	.	.
8.F#\L	.	(8.a\L	.	2.ryy	2.ddd\	.	2.ryy	2.ryy	2.ryy	2.r	.	2.ryy	2.ryy	2.ryy	2.ryy	2.ryy	2.ryy	2.ryy
16E\K	.	16g\K)	.	.	.	.	.	.	.	.	.	.	.	.	.	.	.	.
8F#\	.	8a`\	.	.	.	.	.	.	.	.	.	.	.	.	.	.	.	.
8G\	.	8b`\	.	.	.	.	.	.	.	.	.	.	.	.	.	.	.	.
8A\	.	8cc`\	.	.	.	.	.	.	.	.	.	.	.	.	.	.	.	.
8G\J	.	8b`\J	.	.	.	.	.	.	.	.	.	.	.	.	.	.	.	.
=96	=96	=96	=96	=96	=96	=96	=96	=96	=96	=96	=96	=96	=96	=96	=96	=96	=96	=96
!	!	!	!	!	!LO:TX:a:B:t=t	!	!	!	!	!	!	!	!	!	!	!	!	!
8.F#\L	.	(8.a\L	.	2.ryy	4ddd\	.	2.ryy	2.ryy	2.ryy	2.r	.	2.ryy	2.ryy	2.ryy	2.ryy	2.ryy	2.ryy	2.ryy
16G\Jk	.	16b\Jk)	.	.	.	.	.	.	.	.	.	.	.	.	.	.	.	.
4F#\	.	4a`\	.	.	(16eee\LL	.	.	.	.	.	.	.	.	.	.	.	.	.
.	.	.	.	.	16ddd\	.	.	.	.	.	.	.	.	.	.	.	.	.
.	.	.	.	.	16ccc#X\	.	.	.	.	.	.	.	.	.	.	.	.	.
.	.	.	.	.	16ddd\JJ)	.	.	.	.	.	.	.	.	.	.	.	.	.
4r	.	4r	.	.	(16ccc#\LL	.	.	.	.	.	.	.	.	.	.	.	.	.
.	.	.	.	.	16ddd\	.	.	.	.	.	.	.	.	.	.	.	.	.
.	.	.	.	.	16eee\	.	.	.	.	.	.	.	.	.	.	.	.	.
.	.	.	.	.	16ddd\JJ)	.	.	.	.	.	.	.	.	.	.	.	.	.
=97	=97	=97	=97	=97	=97	=97	=97	=97	=97	=97	=97	=97	=97	=97	=97	=97	=97	=97
!	!	!	!	!	!LO:SIC:s=8qccc#	!	!	!	!	!	!	!	!	!	!	!	!	!
.	.	.	.	.	16qqccc/	.	.	.	.	.	.	.	.	.	.	.	.	.
8.G\L	.	(8.b\L	.	2.ryy	2.ddd\	.	2.ryy	2.ryy	2.ryy	2.r	.	2.ryy	2.ryy	2.ryy	2.ryy	2.ryy	2.ryy	2.ryy
16F#\K	.	16a\K)	.	.	.	.	.	.	.	.	.	.	.	.	.	.	.	.
8G\	.	8b`\	.	.	.	.	.	.	.	.	.	.	.	.	.	.	.	.
8A\	.	8cc`\	.	.	.	.	.	.	.	.	.	.	.	.	.	.	.	.
8B\	.	8dd`\	.	.	.	.	.	.	.	.	.	.	.	.	.	.	.	.
8A\J	.	8cc`\J	.	.	.	.	.	.	.	.	.	.	.	.	.	.	.	.
=98	=98	=98	=98	=98	=98	=98	=98	=98	=98	=98	=98	=98	=98	=98	=98	=98	=98	=98
!	!	!	!	!	!LO:TX:a:B:t=t	!	!	!	!	!	!	!	!	!	!	!	!	!
8.G\L	.	(8.b\L	.	2.ryy	4ddd\	.	2.ryy	2.ryy	2.ryy	2.r	.	2.ryy	2.ryy	2.ryy	2.ryy	2.ryy	2.ryy	2.ryy
16F#\Jk	.	16a\Jk)	.	.	.	.	.	.	.	.	.	.	.	.	.	.	.	.
4G\	.	4b`\	.	.	(16eee\LL	.	.	.	.	.	.	.	.	.	.	.	.	.
.	.	.	.	.	16ddd\	.	.	.	.	.	.	.	.	.	.	.	.	.
.	.	.	.	.	16ccc#X\	.	.	.	.	.	.	.	.	.	.	.	.	.
.	.	.	.	.	16ddd\JJ)	.	.	.	.	.	.	.	.	.	.	.	.	.
4r	.	4r	.	.	(16ccc#\LL	.	.	.	.	.	.	.	.	.	.	.	.	.
.	.	.	.	.	16ddd\	.	.	.	.	.	.	.	.	.	.	.	.	.
.	.	.	.	.	16eee\	.	.	.	.	.	.	.	.	.	.	.	.	.
.	.	.	.	.	16ddd\JJ)	.	.	.	.	.	.	.	.	.	.	.	.	.
=99	=99	=99	=99	=99	=99	=99	=99	=99	=99	=99	=99	=99	=99	=99	=99	=99	=99	=99
!	!	!	!	!	!LO:SIC:s=8qccc#	!	!	!	!	!	!	!	!	!	!	!	!	!
!	!	!	!	!	!LO:TX:a:B:t=t	!	!	!	!	!	!	!	!	!	!	!	!	!
.	.	.	.	.	16qqccc/	.	.	.	.	.	.	.	.	.	.	.	.	.
2.B\	.	2.d\	.	2.ryy	(4.ddd\	.	2.ryy	2.ryy	2.ryy	2.r	.	2.ryy	2.ryy	2.ryy	2.ryy	2.ryy	2.ryy	2.ryy
.	.	.	.	.	16eee\LL	.	.	.	.	.	.	.	.	.	.	.	.	.
.	.	.	.	.	16ddd\JJ)	.	.	.	.	.	.	.	.	.	.	.	.	.
.	.	.	.	.	(16ccc\LL	.	.	.	.	.	.	.	.	.	.	.	.	.
.	.	.	.	.	16bb\	.	.	.	.	.	.	.	.	.	.	.	.	.
.	.	.	.	.	16aa\	.	.	.	.	.	.	.	.	.	.	.	.	.
.	.	.	.	.	16gg\JJ)	.	.	.	.	.	.	.	.	.	.	.	.	.
=100	=100	=100	=100	=100	=100	=100	=100	=100	=100	=100	=100	=100	=100	=100	=100	=100	=100	=100
2.c\	.	2.e\	.	2.ryy	(16bb\LL	.	2.ryy	2.ryy	2.ryy	2.r	.	2.ryy	2.ryy	2.ryy	2.ryy	2.ryy	2.ryy	2.ryy
.	.	.	.	.	16aa\	.	.	.	.	.	.	.	.	.	.	.	.	.
.	.	.	.	.	16gg#X\	.	.	.	.	.	.	.	.	.	.	.	.	.
.	.	.	.	.	16aa\JJ)	.	.	.	.	.	.	.	.	.	.	.	.	.
!	!	!	!	!	!LO:TX:a:B:t=t	!	!	!	!	!	!	!	!	!	!	!	!	!
.	.	.	.	.	4.aa\	.	.	.	.	.	.	.	.	.	.	.	.	.
.	.	.	.	.	16bb\LL	.	.	.	.	.	.	.	.	.	.	.	.	.
.	.	.	.	.	16ccc\JJ	.	.	.	.	.	.	.	.	.	.	.	.	.
=101	=101	=101	=101	=101	=101	=101	=101	=101	=101	=101	=101	=101	=101	=101	=101	=101	=101	=101
8B\L	.	8d\L	.	2.ryy	(16bb\LL	.	2.ryy	2.ryy	2.ryy	2.r	.	2.ryy	2.ryy	2.ryy	2.ryy	2.ryy	2.ryy	2.ryy
.	.	.	.	.	16gg\)	.	.	.	.	.	.	.	.	.	.	.	.	.
8c\	.	8e\J	.	.	(16ccc\	.	.	.	.	.	.	.	.	.	.	.	.	.
.	.	.	.	.	16aa\JJ)	.	.	.	.	.	.	.	.	.	.	.	.	.
8d\	.	8d/L	.	.	8.gg\L	.	.	.	.	.	.	.	.	.	.	.	.	.
8d\	.	8B/	.	.	.	.	.	.	.	.	.	.	.	.	.	.	.	.
.	.	.	.	.	16aa\Jk	.	.	.	.	.	.	.	.	.	.	.	.	.
!	!	!	!	!	!LO:TX:a:B:t=t	!	!	!	!	!	!	!	!	!	!	!	!	!
8D\	.	8c/	.	.	4aa\	.	.	.	.	.	.	.	.	.	.	.	.	.
8D\J	.	8A/J	.	.	.	.	.	.	.	.	.	.	.	.	.	.	.	.
=102	=102	=102	=102	=102	=102	=102	=102	=102	=102	=102	=102	=102	=102	=102	=102	=102	=102	=102
4E\	.	4B/	.	2.ryy	24gg\LL	.	2.ryy	2.ryy	2.ryy	2.r	.	2.ryy	2.ryy	2.ryy	2.ryy	2.ryy	2.ryy	2.ryy
.	.	.	.	.	24bb\	.	.	.	.	.	.	.	.	.	.	.	.	.
.	.	.	.	.	24aa\JJ	.	.	.	.	.	.	.	.	.	.	.	.	.
.	.	.	.	.	24gg\LL	.	.	.	.	.	.	.	.	.	.	.	.	.
.	.	.	.	.	24bb\	.	.	.	.	.	.	.	.	.	.	.	.	.
.	.	.	.	.	24aa\JJ	.	.	.	.	.	.	.	.	.	.	.	.	.
4r	.	4r	.	.	24gg\LL	.	.	.	.	.	.	.	.	.	.	.	.	.
.	.	.	.	.	24bb\	.	.	.	.	.	.	.	.	.	.	.	.	.
.	.	.	.	.	24aa\JJ	.	.	.	.	.	.	.	.	.	.	.	.	.
.	.	.	.	.	24gg\LL	.	.	.	.	.	.	.	.	.	.	.	.	.
.	.	.	.	.	24ff#\	.	.	.	.	.	.	.	.	.	.	.	.	.
.	.	.	.	.	24ee\JJ	.	.	.	.	.	.	.	.	.	.	.	.	.
4r	.	4r	.	.	24dd\LL	.	.	.	.	.	.	.	.	.	.	.	.	.
.	.	.	.	.	24cc\	.	.	.	.	.	.	.	.	.	.	.	.	.
.	.	.	.	.	24b\JJ	.	.	.	.	.	.	.	.	.	.	.	.	.
.	.	.	.	.	24a/LL	.	.	.	.	.	.	.	.	.	.	.	.	.
.	.	.	.	.	24g/	.	.	.	.	.	.	.	.	.	.	.	.	.
.	.	.	.	.	24f#/JJ	.	.	.	.	.	.	.	.	.	.	.	.	.
=103	=103	=103	=103	=103	=103	=103	=103	=103	=103	=103	=103	=103	=103	=103	=103	=103	=103	=103
!	!	!	!	!	!LO:TX:a:t=P:problem=mixed beam	!	!	!	!	!	!	!	!	!	!	!	!	!
8r	.	8r	.	2.ryy	24e\LL	.	2.ryy	2.ryy	2.ryy	2.r	.	2.ryy	2.ryy	2.ryy	2.ryy	2.ryy	2.ryy	2.ryy
.	.	.	.	.	24dd#X\	.	.	.	.	.	.	.	.	.	.	.	.	.
.	.	.	.	.	24ee\JJ	.	.	.	.	.	.	.	.	.	.	.	.	.
!LO:TX:a:t=|	!	!	!	!	!	!	!	!	!	!	!	!	!	!	!	!	!	!
8G\L	.	8g\L	.	.	24g\LL	.	.	.	.	.	.	.	.	.	.	.	.	.
.	.	.	.	.	24ff#\	.	.	.	.	.	.	.	.	.	.	.	.	.
.	.	.	.	.	24gg\JJ	.	.	.	.	.	.	.	.	.	.	.	.	.
!LO:TX:a:t=|	!	!	!	!	!LO:TX:a:t=P:problem=mixed beam	!	!	!	!	!	!	!	!	!	!	!	!	!
8E\	.	8e\	.	.	24e\LL	.	.	.	.	.	.	.	.	.	.	.	.	.
.	.	.	.	.	24dd#\	.	.	.	.	.	.	.	.	.	.	.	.	.
.	.	.	.	.	24ee\JJ	.	.	.	.	.	.	.	.	.	.	.	.	.
!LO:TX:a:t=|	!	!	!	!	!	!	!	!	!	!	!	!	!	!	!	!	!	!
8G\	.	8g\	.	.	24g\LL	.	.	.	.	.	.	.	.	.	.	.	.	.
.	.	.	.	.	24ff#\	.	.	.	.	.	.	.	.	.	.	.	.	.
.	.	.	.	.	24gg\JJ	.	.	.	.	.	.	.	.	.	.	.	.	.
!LO:TX:a:t=|	!	!	!	!	!LO:TX:a:t=P:problem=mixed beam	!	!	!	!	!	!	!	!	!	!	!	!	!
8E\	.	8e\	.	.	24e\LL	.	.	.	.	.	.	.	.	.	.	.	.	.
.	.	.	.	.	24dd#\	.	.	.	.	.	.	.	.	.	.	.	.	.
.	.	.	.	.	24ee\JJ	.	.	.	.	.	.	.	.	.	.	.	.	.
!LO:TX:a:t=|	!	!	!	!	!LO:TX:a:t=P:problem=mixed beam	!	!	!	!	!	!	!	!	!	!	!	!	!
8C#X\J	.	8c#X\J	.	.	24c#X\LL	.	.	.	.	.	.	.	.	.	.	.	.	.
.	.	.	.	.	24b\	.	.	.	.	.	.	.	.	.	.	.	.	.
!	!	!	!	!	!LO:SIC:s=16cc#	!	!	!	!	!	!	!	!	!	!	!	!	!
.	.	.	.	.	24cc\JJ	.	.	.	.	.	.	.	.	.	.	.	.	.
=104	=104	=104	=104	=104	=104	=104	=104	=104	=104	=104	=104	=104	=104	=104	=104	=104	=104	=104
!LO:TX:a:t=|	!	!	!	!	!LO:TX:a:t=P:problem=mixed beam	!	!	!	!	!	!	!	!	!	!	!	!	!
4D\	.	4d\	.	2.ryy	24dn/LL	.	2.ryy	2.ryy	2.ryy	2.r	.	2.ryy	2.ryy	2.ryy	2.ryy	2.ryy	2.ryy	2.ryy
.	.	.	.	.	24cc#X/	.	.	.	.	.	.	.	.	.	.	.	.	.
.	.	.	.	.	24dd/JJ	.	.	.	.	.	.	.	.	.	.	.	.	.
.	.	.	.	.	24ee\LL	.	.	.	.	.	.	.	.	.	.	.	.	.
.	.	.	.	.	24ff#\	.	.	.	.	.	.	.	.	.	.	.	.	.
.	.	.	.	.	24gg\JJ	.	.	.	.	.	.	.	.	.	.	.	.	.
4r	.	4r	.	.	24aa\LL	.	.	.	.	.	.	.	.	.	.	.	.	.
.	.	.	.	.	24ccc\	.	.	.	.	.	.	.	.	.	.	.	.	.
.	.	.	.	.	24bb\JJ	.	.	.	.	.	.	.	.	.	.	.	.	.
.	.	.	.	.	24aa\LL	.	.	.	.	.	.	.	.	.	.	.	.	.
.	.	.	.	.	24ccc\	.	.	.	.	.	.	.	.	.	.	.	.	.
.	.	.	.	.	24bb\JJ	.	.	.	.	.	.	.	.	.	.	.	.	.
4r	.	4r	.	.	24aa\LL	.	.	.	.	.	.	.	.	.	.	.	.	.
.	.	.	.	.	24bb\	.	.	.	.	.	.	.	.	.	.	.	.	.
.	.	.	.	.	24ccc\JJ	.	.	.	.	.	.	.	.	.	.	.	.	.
.	.	.	.	.	24ddd\LL	.	.	.	.	.	.	.	.	.	.	.	.	.
.	.	.	.	.	24bb\	.	.	.	.	.	.	.	.	.	.	.	.	.
.	.	.	.	.	24gg\JJ	.	.	.	.	.	.	.	.	.	.	.	.	.
=105	=105	=105	=105	=105	=105	=105	=105	=105	=105	=105	=105	=105	=105	=105	=105	=105	=105	=105
!	!	!	!	!	!LO:TX:a:B:t=t	!	!	!	!	!	!	!	!	!	!	!	!	!
8d\L	.	8g\L	.	2.ryy	2.aa\	.	2.ryy	2.ryy	2.ryy	2.r	.	2.ryy	2.ryy	2.ryy	2.ryy	2.ryy	2.ryy	2.ryy
8d\	.	8g\	.	.	.	.	.	.	.	.	.	.	.	.	.	.	.	.
8d\	.	8g\	.	.	.	.	.	.	.	.	.	.	.	.	.	.	.	.
8d\	.	8g\	.	.	.	.	.	.	.	.	.	.	.	.	.	.	.	.
8D\	.	8f#\	.	.	.	.	.	.	.	.	.	.	.	.	.	.	.	.
8D\J	.	8f#\J	.	.	.	.	.	.	.	.	.	.	.	.	.	.	.	.
=106	=106	=106	=106	=106	=106	=106	=106	=106	=106	=106	=106	=106	=106	=106	=106	=106	=106	=106
!	!	!	!	!LO:TX:b:t=Verte Agnus	!	!	!	!	!	!	!	!	!	!	!	!	!	!
!	!	!	!	!LO:TX:a:B:t=Osanna ut Pleni Si tibi Placet	!LO:TX:a:t=P:problem=mixed beam	!	!	!	!	!	!	!	!LO:TX:b:t=Verte Agnus	!	!	!	!	!
4G\	.	24g\LL	.	2.ryy	24gg\LL	.	2.ryy	2.ryy	2.ryy	2.r	.	2.ryy	2.ryy	2.ryy	2.ryy	2.ryy	2.ryy	2.ryy
.	.	24B\	.	.	24g\	.	.	.	.	.	.	.	.	.	.	.	.	.
.	.	24d\JJ	.	.	24b\JJ	.	.	.	.	.	.	.	.	.	.	.	.	.
.	.	24g\LL	.	.	24dd\LL	.	.	.	.	.	.	.	.	.	.	.	.	.
.	.	24b\	.	.	24gg\	.	.	.	.	.	.	.	.	.	.	.	.	.
.	.	24dd\JJ	.	.	24bb\JJ	.	.	.	.	.	.	.	.	.	.	.	.	.
4GG/	.	4b\	.	.	4gg\	.	.	.	.	.	.	.	.	.	.	.	.	.
!	!	!	!	!	!LO:TX:a:B:t=Osanna ut Pleni\nSi tibi Placet	!	!	!	!	!	!	!	!	!	!	!	!	!
4r	.	4r	.	.	4r	.	.	.	.	.	.	.	.	.	.	.	.	.
==	==	==	==	==	==	==	==	==	==	==	==	==	==	==	==	==	==	==
*-	*-	*-	*-	*-	*-	*-	*-	*-	*-	*-	*-	*-	*-	*-	*-	*-	*-	*-
!!!system-decoration: [(s1,s2,s3,s4)][(s5,s6)][(s7)][(s8,s9,s10,s11)][(s12,s13,s14)][(s15)]
!!!RDF**kern: > = above
!!!RDF**kern: < = below
!!!RDF**dynam: > = "dim", fontstyle= "bold-italic"
!!!RDF**dynam: < = "cresc", fontstyle= "bold-italic"
!!!RDF**kern: | = vertical stroke
!!!RDF**kern: N = linked
!!!RDF**kern: i = editorial accidental
!!!RDF**kern: l = terminal long
!!!ENC: Andrzej Kubiczek
!!!END: 2020-06-30
!!!EED: Wojciech Jakubiak-Danek
!!!EEV: 2021-11-24
!!!YEC: Copyright 2022 Narodowy Instytut Fryderyka Chopina (https://polishscores.org)
!!!YEM: License CC-BY-4.0 (https://creativecommons.org/licenses/by/4.0)
